%
O0005
(T1 D=44.45 CR=0. - ZMIN=-8. - FLAT END MILL)
(T2 D=12.7 CR=0. - ZMIN=-8. - FLAT END MILL)
(T4 D=12. CR=0. - ZMIN=-8. - FLAT END MILL)
N10G90G94G17G49G40G80
N15G21
N20G28G91Z0.
N25G90

(FACE2)
N30T2M06
N35T1
N40S7639M03
N45G54
N50M08
N55G00X49.249Y-30.215
N60G43Z23.H02
N65G00Z13.
N70G01Z8.27F3202.
N75G18G03X47.979Z7.I-1.27
N80G01X44.921
N85X-44.917
N90X-56.65
N95G17G02Y-18.203J6.006
N100G01X56.649
N105X59.996
N110G03Y-6.191J6.006
N115G01X-60.
N120G02Y5.821J6.006
N125G01X59.998
N130G03Y17.833J6.006
N135G01X56.862
N140X-56.861
N145G02Y29.845J6.006
N150G01X-45.457
N155X45.454
N160G18G02X46.724Z8.27K1.27
N165G00Z23.
N170G17

(2D CONTOUR3)
N30T3M06
N175G00X70.165Y1.54
N180Z23.
N185Z13.
N190G01Z9.F1067.
N195Z-6.73
N200X70.157Z-6.872F3202.
N205X70.133Z-7.013
N210X70.094Z-7.149
N215X70.039Y1.541Z-7.281
N220X69.97Z-7.406
N225X69.888Y1.542Z-7.522
N230X69.793Z-7.628
N235X69.687Y1.543Z-7.723
N240X69.571Z-7.805
N245X69.446Y1.544Z-7.874
N250X69.314Y1.545Z-7.929
N255X69.178Y1.546Z-7.968
N260X69.037Y1.547Z-7.992
N265X68.895Z-8.
N270X67.625Y1.555
N275G03X66.347Y0.293I-0.008J-1.27
N280G01X66.342Y-0.628
N285G02X66.334Y-0.898I-6.35J0.038
N290G01X66.29Y-1.818
N295G02X66.271Y-2.087I-6.342J0.309
N300G01X66.187Y-3.006
N305G02X66.157Y-3.273I-6.324J0.577
N310G01X66.034Y-4.19
N315G02X65.993Y-4.454I-6.294J0.844
N320G01X65.831Y-5.37
N325G02X65.779Y-5.63I-6.253J1.107
N330G01X65.577Y-6.544
N335G02X65.516Y-6.798I-6.201J1.367
N340G01X65.275Y-7.71
N345G02X65.204Y-7.958I-6.14J1.621
N350G01X64.924Y-8.867
N355G02X64.844Y-9.11I-6.069J1.869
N360G01X64.525Y-10.015
N365G02X64.437Y-10.251I-5.989J2.112
N370G01X64.078Y-11.153
N375X63.982Y-11.38
N380X63.584Y-12.278
N385X63.482Y-12.497
N390X63.044Y-13.391
N395X62.936Y-13.602
N400X62.459Y-14.49
N405X62.344Y-14.694
N410X61.828Y-15.576
N415X61.709Y-15.771
N420X61.153Y-16.648
N425X61.03Y-16.834
N430X60.434Y-17.704
N435X60.308Y-17.882
N440X59.672Y-18.746
N445X59.543Y-18.915
N450X58.867Y-19.771
N455X58.736Y-19.932
N460X58.019Y-20.78
N465X57.886Y-20.933
N470X57.13Y-21.773
N475X56.995Y-21.919
N480X56.199Y-22.75
N485X56.063Y-22.887
N490X55.226Y-23.709
N495X55.09Y-23.839
N500X54.212Y-24.651
N505X54.075Y-24.774
N510X53.158Y-25.575
N515X53.021Y-25.691
N520X52.062Y-26.481
N525X51.925Y-26.592
N530X50.925Y-27.37
N535X50.789Y-27.473
N540X49.749Y-28.239
N545X49.612Y-28.337
N550X48.531Y-29.089
N555X48.395Y-29.182
N560X47.272Y-29.92
N565X47.137Y-30.007
N570X45.974Y-30.731
N575X45.839Y-30.813
N580X44.635Y-31.522
N585X44.501Y-31.598
N590X43.255Y-32.291
N595X43.121Y-32.364
N600X41.835Y-33.04
N605X41.702Y-33.107
N610X40.375Y-33.766
N615X40.243Y-33.829
N620X38.874Y-34.469
N625X38.743Y-34.529
N630X37.333Y-35.149
N635X37.203Y-35.204
N640X35.753Y-35.804
N645X35.623Y-35.856
N650X34.132Y-36.435
N655X34.003Y-36.483
N660X32.473Y-37.039
N665X32.344Y-37.084
N670X30.774Y-37.617
N675X30.647Y-37.658
N680X29.038Y-38.166
N685X28.91Y-38.205
N690X27.263Y-38.687
N695X27.136Y-38.723
N700X25.452Y-39.178
N705X25.325Y-39.211
N710X23.605Y-39.638
N715X23.479Y-39.668
N720X21.724Y-40.066
N725X21.598Y-40.093
N730X19.809Y-40.46
N735X19.683Y-40.485
N740X17.863Y-40.82
N745X17.738Y-40.842
N750X15.888Y-41.145
N755X15.763Y-41.164
N760X13.886Y-41.433
N765X13.76Y-41.449
N770X11.859Y-41.683
N775X11.733Y-41.697
N780X9.81Y-41.895
N785X9.685Y-41.906
N790X7.744Y-42.067
N795X7.618Y-42.076
N800X5.661Y-42.199
N805X5.536Y-42.205
N810X3.568Y-42.29
N815X3.442Y-42.294
N820X1.466Y-42.34
N825X1.34Y-42.341
N830X-0.639Y-42.348
N835X-0.765Y-42.347
N840X-2.744Y-42.314
N845X-2.87Y-42.311
N850X-4.844Y-42.239
N855X-4.97Y-42.233
N860X-6.936Y-42.123
N865X-7.062Y-42.115
N870X-9.016Y-41.966
N875X-9.142Y-41.955
N880X-11.08Y-41.768
N885X-11.206Y-41.755
N890X-13.124Y-41.531
N895X-13.25Y-41.515
N900X-15.146Y-41.256
N905X-15.272Y-41.238
N910X-17.142Y-40.943
N915X-17.269Y-40.922
N920X-19.11Y-40.594
N925X-19.236Y-40.57
N930X-21.047Y-40.21
N935X-21.174Y-40.183
N940X-22.952Y-39.791
N945X-23.079Y-39.761
N950X-24.823Y-39.339
N955X-24.951Y-39.307
N960X-26.658Y-38.856
N965X-26.786Y-38.82
N970X-28.456Y-38.341
N975X-28.584Y-38.303
N980X-30.216Y-37.798
N985X-30.345Y-37.756
N990X-31.937Y-37.226
N995X-32.066Y-37.181
N1000X-33.619Y-36.626
N1005X-33.749Y-36.578
N1010X-35.26Y-36.
N1015X-35.391Y-35.948
N1020X-36.861Y-35.349
N1025X-36.993Y-35.294
N1030X-38.422Y-34.673
N1035X-38.554Y-34.614
N1040X-39.942Y-33.973
N1045X-40.074Y-33.91
N1050X-41.42Y-33.25
N1055X-41.553Y-33.183
N1060X-42.857Y-32.505
N1065X-42.991Y-32.434
N1070X-44.253Y-31.739
N1075X-44.388Y-31.662
N1080X-45.608Y-30.952
N1085X-45.743Y-30.87
N1090X-46.921Y-30.144
N1095X-47.058Y-30.057
N1100X-48.194Y-29.316
N1105X-48.33Y-29.225
N1110X-49.425Y-28.47
N1115X-49.562Y-28.372
N1120X-50.615Y-27.604
N1125X-50.752Y-27.501
N1130X-51.763Y-26.72
N1135X-51.901Y-26.61
N1140X-52.871Y-25.817
N1145X-53.008Y-25.702
N1150X-53.937Y-24.898
N1155X-54.074Y-24.775
N1160X-54.961Y-23.961
N1165X-55.098Y-23.831
N1170X-55.944Y-23.007
N1175X-56.081Y-22.869
N1180X-56.886Y-22.035
N1185X-57.021Y-21.891
N1190X-57.785Y-21.048
N1195X-57.919Y-20.896
N1200X-58.643Y-20.045
N1205X-58.775Y-19.884
N1210X-59.458Y-19.025
N1215X-59.587Y-18.857
N1220X-60.23Y-17.991
N1225X-60.357Y-17.813
N1230X-60.959Y-16.941
N1235X-61.083Y-16.755
N1240X-61.645Y-15.876
N1245X-61.764Y-15.681
N1250X-62.286Y-14.796
N1255X-62.4Y-14.594
N1260X-62.883Y-13.704
N1265X-62.992Y-13.493
N1270X-63.434Y-12.597
N1275X-63.538Y-12.378
N1280X-63.94Y-11.478
N1285X-64.036Y-11.252
N1290X-64.399Y-10.348
N1295G02X-64.488Y-10.113I5.892J2.367
N1300G01X-64.812Y-9.206
N1305G02X-64.892Y-8.965I5.981J2.132
N1310G01X-65.176Y-8.054
N1315G02X-65.248Y-7.806I6.062J1.89
N1320G01X-65.492Y-6.893
N1325G02X-65.555Y-6.639I6.134J1.642
N1330G01X-65.76Y-5.724
N1335G02X-65.812Y-5.465I6.196J1.388
N1340G01X-65.978Y-4.548
N1345G02X-66.02Y-4.284I6.249J1.129
N1350G01X-66.146Y-3.366
N1355G02X-66.177Y-3.099I6.291J0.865
N1360G01X-66.264Y-2.179
N1365G02X-66.284Y-1.911I6.322J0.598
N1370G01X-66.331Y-0.991
N1375X-66.339Y-0.758
N1380X-66.349Y-0.097
N1385Y0.135
N1390X-66.329Y1.055
N1395G02X-66.317Y1.325I6.349J-0.135
N1400G01X-66.259Y2.245
N1405G02X-66.236Y2.513I6.337J-0.405
N1410G01X-66.138Y3.432
N1415G02X-66.104Y3.698I6.314J-0.674
N1420G01X-65.967Y4.615
N1425G02X-65.922Y4.877I6.28J-0.939
N1430G01X-65.745Y5.793
N1435G02X-65.69Y6.05I6.235J-1.201
N1440G01X-65.475Y6.964
N1445G02X-65.409Y7.217I6.18J-1.459
N1450G01X-65.154Y8.128
N1455G02X-65.08Y8.373I6.115J-1.712
N1460G01X-64.786Y9.281
N1465G02X-64.703Y9.521I6.041J-1.957
N1470G01X-64.37Y10.425
N1475X-64.279Y10.657
N1480X-63.906Y11.558
N1485X-63.808Y11.783
N1490X-63.395Y12.679
N1495X-63.291Y12.896
N1500X-62.839Y13.787
N1505X-62.729Y13.995
N1510X-62.237Y14.882
N1515X-62.121Y15.082
N1520X-61.59Y15.963
N1525X-61.47Y16.154
N1530X-60.9Y17.029
N1535X-60.775Y17.212
N1540X-60.165Y18.081
N1545X-60.038Y18.255
N1550X-59.388Y19.116
N1555X-59.257Y19.282
N1560X-58.567Y20.136
N1565X-58.435Y20.294
N1570X-57.705Y21.139
N1575X-57.571Y21.289
N1580X-56.801Y22.126
N1585X-56.665Y22.269
N1590X-55.854Y23.097
N1595X-55.718Y23.231
N1600X-54.867Y24.049
N1605X-54.73Y24.177
N1610X-53.838Y24.985
N1615X-53.701Y25.106
N1620X-52.769Y25.903
N1625X-52.631Y26.017
N1630X-51.658Y26.803
N1635X-51.521Y26.91
N1640X-50.507Y27.684
N1645X-50.37Y27.786
N1650X-49.316Y28.547
N1655X-49.179Y28.642
N1660X-48.084Y29.39
N1665X-47.947Y29.48
N1670X-46.81Y30.214
N1675X-46.675Y30.299
N1680X-45.497Y31.018
N1685X-45.363Y31.098
N1690X-44.143Y31.801
N1695X-44.01Y31.876
N1700X-42.749Y32.563
N1705X-42.616Y32.633
N1710X-41.315Y33.303
N1715X-41.182Y33.369
N1720X-39.84Y34.021
N1725X-39.708Y34.083
N1730X-38.325Y34.716
N1735X-38.194Y34.774
N1740X-36.77Y35.387
N1745X-36.64Y35.441
N1750X-35.175Y36.034
N1755X-35.046Y36.084
N1760X-33.541Y36.655
N1765X-33.411Y36.702
N1770X-31.867Y37.25
N1775X-31.739Y37.294
N1780X-30.155Y37.817
N1785X-30.027Y37.858
N1790X-28.404Y38.357
N1795X-28.277Y38.394
N1800X-26.617Y38.867
N1805X-26.49Y38.902
N1810X-24.792Y39.347
N1815X-24.666Y39.378
N1820X-22.934Y39.795
N1825X-22.807Y39.824
N1830X-21.04Y40.211
N1835X-20.914Y40.237
N1840X-19.114Y40.593
N1845X-18.988Y40.617
N1850X-17.157Y40.941
N1855X-17.031Y40.962
N1860X-15.172Y41.252
N1865X-15.046Y41.271
N1870X-13.16Y41.527
N1875X-13.035Y41.543
N1880X-11.126Y41.763
N1885X-11.Y41.777
N1890X-9.07Y41.961
N1895X-8.944Y41.972
N1900X-6.997Y42.119
N1905X-6.871Y42.127
N1910X-4.91Y42.236
N1915X-4.784Y42.242
N1920X-2.813Y42.312
N1925X-2.687Y42.316
N1930X-0.71Y42.347
N1935X-0.584Y42.348
N1940X1.395Y42.341
N1945X1.521Y42.339
N1950X3.499Y42.292
N1955X3.625Y42.288
N1960X5.597Y42.202
N1965X5.723Y42.195
N1970X7.685Y42.071
N1975X7.811Y42.062
N1980X9.76Y41.899
N1985X9.886Y41.888
N1990X11.817Y41.688
N1995X11.943Y41.673
N2000X13.853Y41.437
N2005X13.98Y41.42
N2010X15.866Y41.148
N2015X15.993Y41.128
N2020X17.852Y40.822
N2025X17.979Y40.8
N2030X19.81Y40.46
N2035X19.936Y40.435
N2040X21.735Y40.063
N2045X21.863Y40.035
N2050X23.629Y39.632
N2055X23.756Y39.602
N2060X25.486Y39.169
N2065X25.614Y39.136
N2070X27.308Y38.674
N2075X27.436Y38.638
N2080X29.092Y38.149
N2085X29.221Y38.11
N2090X30.839Y37.595
N2095X30.968Y37.553
N2100X32.546Y37.013
N2105X32.675Y36.967
N2110X34.213Y36.404
N2115X34.343Y36.355
N2120X35.84Y35.769
N2125X35.971Y35.716
N2130X37.427Y35.109
N2135X37.558Y35.052
N2140X38.972Y34.424
N2145X39.105Y34.363
N2150X40.477Y33.716
N2155X40.611Y33.651
N2160X41.941Y32.985
N2165X42.075Y32.916
N2170X43.363Y32.233
N2175X43.498Y32.159
N2180X44.745Y31.458
N2185X44.88Y31.38
N2190X46.085Y30.664
N2195X46.221Y30.581
N2200X47.383Y29.849
N2205X47.52Y29.761
N2210X48.641Y29.015
N2215X48.778Y28.92
N2220X49.857Y28.161
N2225X49.995Y28.061
N2230X51.032Y27.288
N2235X51.17Y27.183
N2240X52.166Y26.398
N2245X52.304Y26.286
N2250X53.259Y25.489
N2255X53.396Y25.371
N2260X54.31Y24.563
N2265X54.447Y24.438
N2270X55.319Y23.62
N2275X55.457Y23.487
N2280X56.288Y22.659
N2285X56.423Y22.52
N2290X57.214Y21.683
N2295X57.349Y21.535
N2300X58.098Y20.689
N2305X58.232Y20.534
N2310X58.941Y19.68
N2315X59.072Y19.517
N2320X59.74Y18.655
N2325X59.869Y18.483
N2330X60.497Y17.615
N2335X60.622Y17.435
N2340X61.21Y16.56
N2345X61.332Y16.371
N2350X61.88Y15.49
N2355X61.998Y15.292
N2360X62.506Y14.405
N2365X62.618Y14.2
N2370X63.086Y13.308
N2375X63.193Y13.094
N2380X63.621Y12.197
N2385X63.722Y11.975
N2390X64.11Y11.074
N2395X64.204Y10.844
N2400X64.553Y9.939
N2405G02X64.639Y9.702I-5.925J-2.283
N2410G01X64.948Y8.793
N2415G02X65.026Y8.549I-6.011J-2.046
N2420G01X65.295Y7.638
N2425G02X65.364Y7.388I-6.089J-1.802
N2430G01X65.594Y6.474
N2435G02X65.653Y6.218I-6.158J-1.551
N2440G01X65.844Y5.302
N2445G02X65.892Y5.041I-6.217J-1.295
N2450G01X66.044Y4.124
N2455G02X66.082Y3.858I-6.265J-1.034
N2460G01X66.194Y2.939
N2465G02X66.221Y2.673I-6.303J-0.769
N2470G01X66.294Y1.753
N2475G02X66.31Y1.483I-6.33J-0.502
N2480G01X66.343Y0.563
N2485G02X66.347Y0.293I-6.346J-0.232
N2490G03X67.61Y-0.985I1.27J-0.008
N2495G01X68.88Y-0.992
N2500X69.022Y-0.993Z-7.992
N2505X69.162Y-0.994Z-7.968
N2510X69.299Y-0.995Z-7.929
N2515X69.431Y-0.996Z-7.874
N2520X69.555Y-0.997Z-7.805
N2525X69.672Z-7.723
N2530X69.778Y-0.998Z-7.628
N2535X69.873Z-7.522
N2540X69.955Y-0.999Z-7.406
N2545X70.024Z-7.281
N2550X70.078Y-1.Z-7.149
N2555X70.118Z-7.013
N2560X70.142Z-6.872
N2565X70.15Z-6.73
N2570G00Z23.
N2575M05
N2580G28G91Z0.
N2585G90
N2590G49

(DRILL9)
N30T4M06
N2595M09
N2600M01
N2605T1M06
N2610T4
N2615S11999M03
N2620G54
N2625M08
N2630G00X0.Y0.
N2635G43Z23.H01
N2640G00Z13.
N2645G98G81X0.Y0.Z-8.R12.F634.
N2650G80
N2655Z23.
N2660M05
N2665G28G91Z0.
N2670G90
N2675G49

(DRILL10)
N30T1M06
N2680M09
N2685M01
N2690T4M06
N2695T2
N2700S12000M03
N2705G54
N2710M08
N2715G00X42.Y0.
N2720G43Z23.H04
N2725G00Z13.
N2730G81X42.Y0.Z-8.R12.F1059.
N2735X-42.
N2740G80
N2745Z23.

N2750M09
N2755G28G91Z0.
N2760G90
N2765G49
N2770G28G91X0.Y0.
N2775G90
N2780M30
%