%
O0005
(T1 D=1.058 CR=0. - ZMIN=-2. - FLAT END MILL)
(T3 D=39. CR=0. - ZMIN=-16. - RIGHT HAND TAP)
(T4 D=6. CR=0. - ZMIN=-16. - FLAT END MILL)
N10G90G94G17G49G40G80
N15G21
N20G28G91Z0.
N25G90

(FACE1)
N30T4M06
N40S12000M03
N45G54
N50M08
N55G00X79.9Y-48.272
N60G43Z15.H04
N65G00Z5.
N70G01Z-0.4F2388.
N75G18G03X79.3Z-1.I-0.6
N80G01X76.
N85X-76.
N90G17G02Y-42.603J2.834
N95G01X76.
N100G03Y-36.935J2.834
N105G01X-76.
N110G02Y-31.267J2.834
N115G01X76.
N120G03Y-25.598J2.834
N125G01X-76.
N130G02Y-19.93J2.834
N135G01X76.
N140G03Y-14.262J2.834
N145G01X-76.
N150G02Y-8.593J2.834
N155G01X76.
N160G03Y-2.925J2.834
N165G01X-76.
N170G02Y2.743J2.834
N175G01X76.
N180G03Y8.412J2.834
N185G01X-76.
N190G02Y14.08J2.834
N195G01X76.
N200G03Y19.748J2.834
N205G01X-76.
N210G02Y25.417J2.834
N215G01X76.
N220G03Y31.085J2.834
N225G01X-76.
N230G02Y36.753J2.834
N235G01X76.
N240G03Y42.422J2.834
N245G01X-76.
N250G02Y48.09J2.834
N255G01X76.
N260G18G02X76.6Z-0.4K0.6
N265G00Z15.
N270G17

(2D CONTOUR1)
N30T2M06
N275G00X75.6Y-54.8
N280Z15.
N285Z5.
N290G01Z1.F796.
N295Z-15.4
N300G19G03Y-54.2Z-16.J0.6F2388.
N305G01Y-53.6
N310G17G03X75.Y-53.I-0.6
N315G01X-75.
N320G02X-78.Y-50.J3.
N325G01Y50.
N330G02X-75.Y53.I3.
N335G01X75.
N340G02X78.Y50.J-3.
N345G01Y-50.
N350G02X75.Y-53.I-3.
N355G03X74.4Y-53.6J-0.6
N360G01Y-54.2
N365G19G02Y-54.8Z-15.4K0.6
N370G00Z15.
N375G17
N380M05
N385G28G91Z0.
N390G90
N395G49

(TRACE1)
N400M09
N405M01
N410T1M06
N420S11999M03
N425G54
N430M08
N435G00X23.793Y-24.
N440G43Z15.H01
N445G00Z4.
N450G01Z-2.F649.
N455X24.628Y-20.
N460X23.959
N465X22.557Y-22.478
N470X22.463Y-22.646
N475X22.375Y-22.805
N480X22.295Y-22.955
N485X22.222Y-23.096
N490X22.156Y-23.229
N495X22.097Y-23.352
N500X22.045Y-23.466
N505X22.Y-23.572
N510X21.962Y-23.092
N515X21.896Y-22.592
N520X21.493Y-20.
N525X20.835
N530X20.Y-24.
N535X20.521
N540X21.053Y-21.449
N545X21.086Y-21.281
N550X21.119Y-21.086
N555X21.153Y-20.864
N560X21.187Y-20.614
N565X21.201Y-20.841
N570X21.219Y-21.054
N575X21.241Y-21.252
N580X21.266Y-21.435
N585X21.667Y-24.
N590X22.183
N595X23.673Y-21.383
N600X23.794Y-21.162
N605X23.906Y-20.948
N610X24.007Y-20.742
N615X24.098Y-20.543
N620X23.971Y-20.952
N625X23.86Y-21.34
N630X23.764Y-21.707
N635X23.684Y-22.055
N640X23.266Y-24.
N645X23.793
N650Z4.
N655G00Z5.
N660X24.731
N665Z4.
N670G01Z-2.F649.
N675X25.288
N680X25.408Y-23.441
N685X24.849
N690X24.731Y-24.
N695Z4.
N700G00Z5.
N705X26.098
N710Z4.
N715G01Z-2.F649.
N720X29.064
N725X29.16Y-23.544
N730X26.979
N735X26.956Y-23.545
N740X26.923Y-23.548
N745X26.879Y-23.553
N750X26.824Y-23.561
N755X26.855Y-23.525
N760X26.895Y-23.479
N765X26.944Y-23.421
N770X27.003Y-23.353
N775X27.146Y-23.183
N780X27.326Y-22.969
N785X29.473Y-20.417
N790X29.52Y-20.
N795X26.761
N800X26.666Y-20.456
N805X28.011
N810X28.325Y-20.45
N815X28.456Y-20.453
N820X28.516Y-20.451
N825X28.595Y-20.445
N830X28.693Y-20.436
N835X28.81Y-20.423
N840X28.691Y-20.557
N845X28.567Y-20.704
N850X28.153Y-21.206
N855X26.15Y-23.599
N860X26.098Y-24.
N865Z4.
N870G00Z5.
N875X29.794Y-23.512
N880Z4.
N885G01Z-2.F649.
N890X29.875Y-23.636
N895X29.973Y-23.746
N900X30.087Y-23.841
N905X30.217Y-23.921
N910X30.359Y-23.984
N915X30.509Y-24.029
N920X30.667Y-24.056
N925X30.832Y-24.066
N930X31.036Y-24.051
N935X31.234Y-24.008
N940X31.428Y-23.937
N945X31.617Y-23.836
N950X31.792Y-23.709
N955X31.947Y-23.557
N960X32.079Y-23.38
N965X32.191Y-23.177
N970X32.279Y-22.958
N975X32.342Y-22.73
N980X32.38Y-22.494
N985X32.393Y-22.248
N990X32.388Y-22.113
N995X32.373Y-21.984
N1000X32.348Y-21.863
N1005X32.313Y-21.749
N1010X32.268Y-21.642
N1015X32.213Y-21.542
N1020X32.147Y-21.45
N1025X32.072Y-21.364
N1030X31.989Y-21.288
N1035X31.899Y-21.221
N1040X31.803Y-21.165
N1045X31.701Y-21.119
N1050X31.592Y-21.083
N1055X31.477Y-21.057
N1060X31.356Y-21.042
N1065X31.228Y-21.037
N1070X31.065Y-21.044
N1075X30.91Y-21.066
N1080X30.763Y-21.101
N1085X30.624Y-21.151
N1090X30.492Y-21.216
N1095X30.369Y-21.295
N1100X30.254Y-21.388
N1105X30.147Y-21.495
N1110X30.03Y-21.639
N1115X29.929Y-21.792
N1120X29.843Y-21.954
N1125X29.773Y-22.125
N1130X29.718Y-22.305
N1135X29.679Y-22.494
N1140X29.656Y-22.693
N1145X29.648Y-22.9
N1150X29.657Y-23.069
N1155X29.684Y-23.226
N1160X29.73Y-23.374
N1165X29.794Y-23.512
N1170Z4.
N1175G00Z5.
N1180X30.838Y-23.684
N1185Z4.
N1190G01Z-2.F649.
N1195X30.693Y-23.67
N1200X30.561Y-23.631
N1205X30.443Y-23.565
N1210X30.338Y-23.472
N1215X30.252Y-23.354
N1220X30.191Y-23.211
N1225X30.154Y-23.044
N1230X30.142Y-22.851
N1235X30.146Y-22.737
N1240X30.16Y-22.615
N1245X30.183Y-22.485
N1250X30.214Y-22.348
N1255X30.256Y-22.211
N1260X30.307Y-22.083
N1265X30.369Y-21.963
N1270X30.441Y-21.853
N1275X30.52Y-21.753
N1280X30.604Y-21.665
N1285X30.693Y-21.591
N1290X30.786Y-21.529
N1295X30.884Y-21.481
N1300X30.987Y-21.447
N1305X31.095Y-21.426
N1310X31.209Y-21.419
N1315X31.352Y-21.432
N1320X31.483Y-21.473
N1325X31.601Y-21.541
N1330X31.707Y-21.636
N1335X31.793Y-21.755
N1340X31.855Y-21.897
N1345X31.892Y-22.06
N1350X31.904Y-22.246
N1355X31.899Y-22.371
N1360X31.883Y-22.499
N1365X31.857Y-22.63
N1370X31.82Y-22.764
N1375X31.753Y-22.951
N1380X31.669Y-23.125
N1385X31.565Y-23.284
N1390X31.441Y-23.424
N1395X31.302Y-23.538
N1400X31.151Y-23.619
N1405X30.995Y-23.667
N1410X30.838Y-23.684
N1415Z4.
N1420G00Z5.
N1425X32.773Y-23.5
N1430Z4.
N1435G01Z-2.F649.
N1440X32.668Y-24.
N1445X33.162
N1450X33.422Y-22.756
N1455X33.48Y-22.503
N1460X33.542Y-22.288
N1465X33.606Y-22.109
N1470X33.674Y-21.969
N1475X33.749Y-21.853
N1480X33.838Y-21.75
N1485X33.94Y-21.661
N1490X34.055Y-21.584
N1495X34.178Y-21.522
N1500X34.304Y-21.479
N1505X34.433Y-21.452
N1510X34.565Y-21.443
N1515X34.652Y-21.449
N1520X34.729Y-21.466
N1525X34.794Y-21.494
N1530X34.849Y-21.533
N1535X34.891Y-21.582
N1540X34.922Y-21.636
N1545X34.941Y-21.698
N1550X34.947Y-21.765
N1555X34.942Y-21.832
N1560X34.927Y-21.934
N1565X34.902Y-22.072
N1570X34.868Y-22.246
N1575X34.499Y-24.
N1580X34.993
N1585X35.351Y-22.289
N1590X35.389Y-22.101
N1595X35.416Y-21.944
N1600X35.432Y-21.82
N1605X35.438Y-21.727
N1610X35.425Y-21.579
N1615X35.388Y-21.447
N1620X35.326Y-21.329
N1625X35.239Y-21.226
N1630X35.129Y-21.143
N1635X34.999Y-21.084
N1640X34.849Y-21.049
N1645X34.679Y-21.037
N1650X34.555Y-21.044
N1655X34.432Y-21.066
N1660X34.311Y-21.102
N1665X34.191Y-21.153
N1670X34.07Y-21.22
N1675X33.944Y-21.307
N1680X33.813Y-21.412
N1685X33.678Y-21.536
N1690X33.997Y-20.
N1695X33.503
N1700X32.773Y-23.5
N1705Z4.
N1710G00Z5.
N1715X35.852Y-23.401
N1720Z4.
N1725G01Z-2.F649.
N1730X35.898Y-23.56
N1735X35.974Y-23.703
N1740X36.082Y-23.83
N1745X36.214Y-23.933
N1750X36.366Y-24.007
N1755X36.538Y-24.051
N1760X36.729Y-24.066
N1765X36.861Y-24.059
N1770X36.991Y-24.04
N1775X37.115Y-24.008
N1780X37.236Y-23.963
N1785X37.356Y-23.905
N1790X37.478Y-23.831
N1795X37.603Y-23.743
N1800X37.73Y-23.64
N1805X37.74Y-23.744
N1810X37.752Y-23.839
N1815X37.768Y-23.924
N1820X37.787Y-24.
N1825X38.286
N1830X38.26Y-23.879
N1835X38.242Y-23.774
N1840X38.23Y-23.683
N1845X38.227Y-23.607
N1850X38.231Y-23.491
N1855X38.246Y-23.36
N1860X38.269Y-23.212
N1865X38.303Y-23.048
N1870X38.464Y-22.327
N1875X38.494Y-22.179
N1880X38.515Y-22.04
N1885X38.528Y-21.91
N1890X38.532Y-21.79
N1895X38.517Y-21.644
N1900X38.472Y-21.513
N1905X38.397Y-21.396
N1910X38.292Y-21.293
N1915X38.21Y-21.233
N1920X38.121Y-21.181
N1925X38.025Y-21.137
N1930X37.922Y-21.101
N1935X37.812Y-21.073
N1940X37.695Y-21.053
N1945X37.571Y-21.041
N1950X37.441Y-21.037
N1955X37.199Y-21.051
N1960X36.979Y-21.094
N1965X36.781Y-21.166
N1970X36.604Y-21.266
N1975X36.45Y-21.393
N1980X36.318Y-21.546
N1985X36.208Y-21.723
N1990X36.12Y-21.926
N1995X36.619Y-21.97
N2000X36.671Y-21.85
N2005X36.736Y-21.745
N2010X36.815Y-21.655
N2015X36.907Y-21.578
N2020X37.013Y-21.518
N2025X37.133Y-21.475
N2030X37.268Y-21.449
N2035X37.416Y-21.441
N2040X37.571Y-21.449
N2045X37.707Y-21.475
N2050X37.822Y-21.517
N2055X37.918Y-21.577
N2060X37.973Y-21.631
N2065X38.012Y-21.694
N2070X38.036Y-21.766
N2075X38.044Y-21.847
N2080X38.04Y-21.918
N2085X38.029Y-21.998
N2090X38.011Y-22.086
N2095X37.986Y-22.183
N2100X37.869Y-22.219
N2105X37.719Y-22.247
N2110X37.535Y-22.268
N2115X37.319Y-22.281
N2120X37.105Y-22.291
N2125X36.929Y-22.303
N2130X36.79Y-22.317
N2135X36.688Y-22.333
N2140X36.56Y-22.361
N2145X36.443Y-22.398
N2150X36.337Y-22.443
N2155X36.24Y-22.495
N2160X36.153Y-22.556
N2165X36.075Y-22.627
N2170X36.007Y-22.706
N2175X35.947Y-22.795
N2180X35.898Y-22.892
N2185X35.864Y-22.996
N2190X35.843Y-23.107
N2195X35.836Y-23.225
N2200X35.852Y-23.401
N2205Z4.
N2210G00Z5.
N2215X36.754Y-23.675
N2220Z4.
N2225G01Z-2.F649.
N2230X36.644Y-23.65
N2235X36.55Y-23.608
N2240X36.471Y-23.55
N2245X36.408Y-23.478
N2250X36.363Y-23.398
N2255X36.336Y-23.308
N2260X36.327Y-23.209
N2265X36.333Y-23.133
N2270X36.35Y-23.06
N2275X36.378Y-22.991
N2280X36.417Y-22.925
N2285X36.468Y-22.865
N2290X36.529Y-22.814
N2295X36.602Y-22.772
N2300X36.685Y-22.738
N2305X36.789Y-22.71
N2310X36.926Y-22.684
N2315X37.094Y-22.662
N2320X37.293Y-22.641
N2325X37.423Y-22.629
N2330X37.532Y-22.617
N2335X37.621Y-22.606
N2340X37.69Y-22.595
N2345X37.805Y-22.568
N2350X37.913Y-22.532
N2355X37.872Y-22.734
N2360X37.825Y-22.911
N2365X37.77Y-23.064
N2370X37.708Y-23.192
N2375X37.637Y-23.302
N2380X37.553Y-23.399
N2385X37.458Y-23.483
N2390X37.351Y-23.554
N2395X37.236Y-23.611
N2400X37.119Y-23.651
N2405X37.Y-23.675
N2410X36.879Y-23.684
N2415X36.754Y-23.675
N2420Z4.
N2425G00Z5.
N2430X39.168Y-22.551
N2435Z4.
N2440G01Z-2.F649.
N2445X38.865Y-24.
N2450X39.359
N2455X39.965Y-21.102
N2460X39.471
N2465X39.168Y-22.551
N2470Z4.
N2475G00Z5.
N2480X40.125Y-24.
N2485Z4.
N2490G01Z-2.F649.
N2495X40.559
N2500X40.674Y-23.452
N2505X40.741Y-23.597
N2510X40.821Y-23.723
N2515X40.912Y-23.828
N2520X41.015Y-23.914
N2525X41.128Y-23.98
N2530X41.25Y-24.028
N2535X41.381Y-24.056
N2540X41.52Y-24.066
N2545X41.69Y-24.049
N2550X41.866Y-24.001
N2555X42.044Y-23.921
N2560X42.218Y-23.808
N2565X42.304Y-23.737
N2570X42.388Y-23.656
N2575X42.47Y-23.564
N2580X42.551Y-23.461
N2585X42.628Y-23.346
N2590X42.699Y-23.219
N2595X42.764Y-23.078
N2600X42.821Y-22.925
N2605X42.869Y-22.761
N2610X42.903Y-22.589
N2615X42.924Y-22.409
N2620X42.93Y-22.221
N2625X42.926Y-22.081
N2630X42.914Y-21.949
N2635X42.892Y-21.826
N2640X42.863Y-21.712
N2645X42.824Y-21.606
N2650X42.778Y-21.508
N2655X42.723Y-21.42
N2660X42.659Y-21.34
N2665X42.589Y-21.269
N2670X42.515Y-21.207
N2675X42.436Y-21.155
N2680X42.354Y-21.113
N2685X42.267Y-21.079
N2690X42.176Y-21.056
N2695X42.08Y-21.042
N2700X41.981Y-21.037
N2705X41.878Y-21.042
N2710X41.778Y-21.059
N2715X41.679Y-21.087
N2720X41.583Y-21.125
N2725X41.484Y-21.178
N2730X41.381Y-21.246
N2735X41.271Y-21.33
N2740X41.157Y-21.43
N2745X41.454Y-20.
N2750X40.96
N2755X40.125Y-24.
N2760Z4.
N2765G00Z5.
N2770X41.95Y-23.48
N2775Z4.
N2780G01Z-2.F649.
N2785X41.838Y-23.56
N2790X41.722Y-23.616
N2795X41.6Y-23.65
N2800X41.473Y-23.662
N2805X41.347Y-23.65
N2810X41.231Y-23.613
N2815X41.125Y-23.553
N2820X41.031Y-23.468
N2825X40.954Y-23.36
N2830X40.898Y-23.23
N2835X40.865Y-23.078
N2840X40.854Y-22.903
N2845X40.857Y-22.81
N2850X40.864Y-22.696
N2855X40.885Y-22.569
N2860X40.92Y-22.429
N2865X40.969Y-22.276
N2870X41.048Y-22.075
N2875X41.137Y-21.903
N2880X41.235Y-21.758
N2885X41.342Y-21.641
N2890X41.457Y-21.551
N2895X41.577Y-21.487
N2900X41.703Y-21.448
N2905X41.834Y-21.435
N2910X41.958Y-21.448
N2915X42.072Y-21.486
N2920X42.176Y-21.549
N2925X42.269Y-21.637
N2930X42.346Y-21.748
N2935X42.401Y-21.88
N2940X42.434Y-22.032
N2945X42.445Y-22.205
N2950X42.436Y-22.371
N2955X42.41Y-22.544
N2960X42.367Y-22.725
N2965X42.306Y-22.914
N2970X42.231Y-23.094
N2975X42.147Y-23.248
N2980X42.053Y-23.377
N2985X41.95Y-23.48
N2990Z4.
N2995G00Z5.
N3000X40.076Y-20.559
N3005Z4.
N3010G01Z-2.F649.
N3015X40.194Y-20.
N3020X39.703
N3025X39.585Y-20.559
N3030X40.076
N3035Z4.
N3040G00Z5.
N3045X45.48Y-21.
N3050Z4.
N3055G01Z-2.F649.
N3060X44.854Y-24.
N3065X45.389
N3070X45.768Y-22.185
N3075X47.872
N3080X47.967Y-21.73
N3085X45.864
N3090X46.128Y-20.456
N3095X48.194
N3100X48.289Y-20.
N3105X45.689
N3110X45.48Y-21.
N3115Z4.
N3120G00Z5.
N3125X46.176Y-26.294
N3130Z4.
N3135G01Z-2.F649.
N3140X45.982Y-26.378
N3145X45.804Y-26.497
N3150X45.647Y-26.646
N3155X45.518Y-26.823
N3160X45.416Y-27.028
N3165X45.342Y-27.261
N3170X45.828Y-27.359
N3175X45.868Y-27.193
N3180X45.926Y-27.047
N3185X46.003Y-26.921
N3190X46.1Y-26.815
N3195X46.209Y-26.73
N3200X46.324Y-26.67
N3205X46.447Y-26.634
N3210X46.576Y-26.622
N3215X46.706Y-26.634
N3220X46.825Y-26.669
N3225X46.934Y-26.728
N3230X47.033Y-26.81
N3235X47.114Y-26.91
N3240X47.173Y-27.021
N3245X47.208Y-27.142
N3250X47.22Y-27.274
N3255X47.205Y-27.418
N3260X47.163Y-27.551
N3265X47.091Y-27.671
N3270X46.992Y-27.78
N3275X46.866Y-27.871
N3280X46.715Y-27.935
N3285X46.54Y-27.973
N3290X46.341Y-27.986
N3295X46.205Y-27.975
N3300X46.12Y-28.387
N3305X46.175Y-28.383
N3310X46.22Y-28.379
N3315X46.254Y-28.377
N3320X46.278Y-28.376
N3325X46.438Y-28.389
N3330X46.58Y-28.425
N3335X46.705Y-28.485
N3340X46.813Y-28.569
N3345X46.9Y-28.671
N3350X46.963Y-28.787
N3355X47.Y-28.915
N3360X47.012Y-29.056
N3365X46.996Y-29.22
N3370X46.946Y-29.375
N3375X46.863Y-29.521
N3380X46.746Y-29.656
N3385X46.607Y-29.771
N3390X46.455Y-29.853
N3395X46.291Y-29.902
N3400X46.115Y-29.918
N3405X45.97Y-29.907
N3410X45.841Y-29.873
N3415X45.725Y-29.816
N3420X45.625Y-29.737
N3425X45.54Y-29.631
N3430X45.471Y-29.496
N3435X45.419Y-29.33
N3440X45.383Y-29.135
N3445X44.903Y-29.195
N3450X44.917Y-29.319
N3455X44.941Y-29.436
N3460X44.973Y-29.547
N3465X45.015Y-29.652
N3470X45.067Y-29.75
N3475X45.127Y-29.842
N3480X45.197Y-29.928
N3485X45.276Y-30.007
N3490X45.362Y-30.078
N3495X45.456Y-30.14
N3500X45.556Y-30.192
N3505X45.662Y-30.235
N3510X45.775Y-30.268
N3515X45.894Y-30.292
N3520X46.02Y-30.306
N3525X46.153Y-30.311
N3530X46.29Y-30.305
N3535X46.423Y-30.286
N3540X46.55Y-30.256
N3545X46.673Y-30.212
N3550X46.791Y-30.157
N3555X46.904Y-30.089
N3560X47.012Y-30.009
N3565X47.115Y-29.917
N3570X47.209Y-29.816
N3575X47.291Y-29.711
N3580X47.36Y-29.601
N3585X47.416Y-29.487
N3590X47.46Y-29.368
N3595X47.492Y-29.245
N3600X47.511Y-29.117
N3605X47.517Y-28.985
N3610X47.51Y-28.862
N3615X47.488Y-28.746
N3620X47.452Y-28.637
N3625X47.401Y-28.535
N3630X47.336Y-28.44
N3635X47.256Y-28.353
N3640X47.16Y-28.272
N3645X47.05Y-28.199
N3650X47.205Y-28.116
N3655X47.339Y-28.024
N3660X47.453Y-27.921
N3665X47.546Y-27.808
N3670X47.618Y-27.685
N3675X47.669Y-27.552
N3680X47.701Y-27.408
N3685X47.711Y-27.255
N3690X47.706Y-27.149
N3695X47.692Y-27.047
N3700X47.668Y-26.949
N3705X47.635Y-26.855
N3710X47.592Y-26.766
N3715X47.54Y-26.681
N3720X47.478Y-26.6
N3725X47.407Y-26.524
N3730X47.328Y-26.454
N3735X47.243Y-26.394
N3740X47.152Y-26.343
N3745X47.056Y-26.301
N3750X46.953Y-26.268
N3755X46.845Y-26.245
N3760X46.731Y-26.231
N3765X46.611Y-26.226
N3770X46.386Y-26.243
N3775X46.176Y-26.294
N3780Z4.
N3785G00Z5.
N3790X48.11Y-28.676
N3795Z4.
N3800G01Z-2.F649.
N3805X48.101Y-28.93
N3810X48.106Y-29.094
N3815X48.12Y-29.247
N3820X48.145Y-29.391
N3825X48.178Y-29.524
N3830X48.222Y-29.648
N3835X48.275Y-29.761
N3840X48.338Y-29.864
N3845X48.411Y-29.958
N3850X48.49Y-30.041
N3855X48.574Y-30.112
N3860X48.663Y-30.173
N3865X48.756Y-30.223
N3870X48.853Y-30.261
N3875X48.954Y-30.289
N3880X49.06Y-30.306
N3885X49.171Y-30.311
N3890X49.384Y-30.293
N3895X49.586Y-30.238
N3900X49.776Y-30.147
N3905X49.954Y-30.019
N3910X50.062Y-29.917
N3915X50.165Y-29.803
N3920X50.262Y-29.677
N3925X50.352Y-29.538
N3930X50.436Y-29.388
N3935X50.514Y-29.226
N3940X50.586Y-29.051
N3945X50.652Y-28.865
N3950X50.745Y-28.539
N3955X50.812Y-28.212
N3960X50.852Y-27.883
N3965X50.865Y-27.552
N3970X50.86Y-27.396
N3975X50.846Y-27.25
N3980X50.822Y-27.112
N3985X50.788Y-26.984
N3990X50.745Y-26.866
N3995X50.692Y-26.757
N4000X50.63Y-26.657
N4005X50.558Y-26.567
N4010X50.479Y-26.488
N4015X50.395Y-26.418
N4020X50.306Y-26.36
N4025X50.213Y-26.312
N4030X50.115Y-26.274
N4035X50.012Y-26.248
N4040X49.905Y-26.232
N4045X49.793Y-26.226
N4050X49.678Y-26.232
N4055X49.569Y-26.247
N4060X49.464Y-26.273
N4065X49.366Y-26.31
N4070X49.269Y-26.357
N4075X49.172Y-26.416
N4080X49.073Y-26.487
N4085X48.974Y-26.57
N4090X48.875Y-26.667
N4095X48.778Y-26.782
N4100X48.683Y-26.913
N4105X48.589Y-27.061
N4110X48.499Y-27.231
N4115X48.412Y-27.428
N4120X48.33Y-27.65
N4125X48.252Y-27.899
N4130X48.186Y-28.16
N4135X48.139Y-28.419
N4140X48.11Y-28.676
N4145Z4.
N4150G00Z5.
N4155X49.716Y-29.659
N4160Z4.
N4165G01Z-2.F649.
N4170X49.596Y-29.772
N4175X49.469Y-29.853
N4180X49.335Y-29.902
N4185X49.195Y-29.918
N4190X49.116Y-29.914
N4195X49.041Y-29.9
N4200X48.972Y-29.878
N4205X48.908Y-29.847
N4210X48.849Y-29.806
N4215X48.794Y-29.757
N4220X48.745Y-29.699
N4225X48.701Y-29.632
N4230X48.647Y-29.518
N4235X48.609Y-29.384
N4240X48.586Y-29.23
N4245X48.578Y-29.056
N4250X48.587Y-28.861
N4255X48.613Y-28.639
N4260X48.657Y-28.387
N4265X48.718Y-28.106
N4270X48.759Y-27.939
N4275X48.803Y-27.783
N4280X48.848Y-27.637
N4285X48.896Y-27.502
N4290X48.945Y-27.378
N4295X48.995Y-27.264
N4300X49.048Y-27.162
N4305X49.102Y-27.07
N4310X49.181Y-26.956
N4315X49.262Y-26.86
N4320X49.344Y-26.783
N4325X49.428Y-26.723
N4330X49.515Y-26.679
N4335X49.605Y-26.647
N4340X49.699Y-26.628
N4345X49.795Y-26.622
N4350X49.924Y-26.634
N4355X50.039Y-26.67
N4360X50.141Y-26.729
N4365X50.231Y-26.813
N4370X50.303Y-26.924
N4375X50.354Y-27.064
N4380X50.385Y-27.235
N4385X50.396Y-27.435
N4390X50.385Y-27.675
N4395X50.353Y-27.947
N4400X50.3Y-28.251
N4405X50.225Y-28.588
N4410X50.18Y-28.759
N4415X50.129Y-28.919
N4420X50.074Y-29.069
N4425X50.013Y-29.208
N4430X49.946Y-29.337
N4435X49.875Y-29.455
N4440X49.798Y-29.562
N4445X49.716Y-29.659
N4450Z4.
N4455G00Z5.
N4460X51.19Y-29.326
N4465Z4.
N4470G01Z-2.F649.
N4475X51.22Y-29.548
N4480X51.28Y-29.743
N4485X51.368Y-29.911
N4490X51.486Y-30.053
N4495X51.627Y-30.166
N4500X51.787Y-30.247
N4505X51.966Y-30.295
N4510X52.164Y-30.311
N4515X52.383Y-30.293
N4520X52.591Y-30.239
N4525X52.788Y-30.148
N4530X52.974Y-30.022
N4535X53.082Y-29.927
N4540X53.184Y-29.82
N4545X53.28Y-29.701
N4550X53.37Y-29.569
N4555X53.455Y-29.425
N4560X53.534Y-29.269
N4565X53.608Y-29.1
N4570X53.675Y-28.92
N4575X53.771Y-28.601
N4580X53.839Y-28.28
N4585X53.88Y-27.957
N4590X53.894Y-27.632
N4595X53.889Y-27.469
N4600X53.873Y-27.315
N4605X53.847Y-27.171
N4610X53.812Y-27.037
N4615X53.766Y-26.912
N4620X53.709Y-26.796
N4625X53.643Y-26.69
N4630X53.566Y-26.594
N4635X53.482Y-26.507
N4640X53.392Y-26.433
N4645X53.297Y-26.37
N4650X53.196Y-26.318
N4655X53.091Y-26.278
N4660X52.98Y-26.249
N4665X52.864Y-26.232
N4670X52.742Y-26.226
N4675X52.607Y-26.233
N4680X52.477Y-26.252
N4685X52.353Y-26.285
N4690X52.234Y-26.33
N4695X52.12Y-26.389
N4700X52.012Y-26.46
N4705X51.909Y-26.544
N4710X51.812Y-26.641
N4715X51.708Y-26.765
N4720X51.618Y-26.895
N4725X51.542Y-27.031
N4730X51.48Y-27.173
N4735X51.432Y-27.321
N4740X51.397Y-27.475
N4745X51.377Y-27.635
N4750X51.37Y-27.801
N4755X51.376Y-27.946
N4760X51.394Y-28.082
N4765X51.423Y-28.21
N4770X51.465Y-28.329
N4775X51.519Y-28.439
N4780X51.585Y-28.541
N4785X51.662Y-28.633
N4790X51.752Y-28.718
N4795X51.901Y-28.825
N4800X52.06Y-28.902
N4805X52.229Y-28.948
N4810X52.407Y-28.963
N4815X52.606Y-28.943
N4820X52.801Y-28.884
N4825X52.901Y-28.838
N4830X53.007Y-28.778
N4835X53.121Y-28.705
N4840X53.242Y-28.619
N4845X53.196Y-28.783
N4850X53.145Y-28.937
N4855X53.088Y-29.081
N4860X53.025Y-29.215
N4865X52.957Y-29.339
N4870X52.882Y-29.454
N4875X52.801Y-29.559
N4880X52.715Y-29.653
N4885X52.591Y-29.761
N4890X52.462Y-29.838
N4895X52.328Y-29.884
N4900X52.188Y-29.899
N4905X52.092Y-29.89
N4910X52.003Y-29.864
N4915X51.92Y-29.819
N4920X51.845Y-29.757
N4925X51.778Y-29.674
N4930X51.724Y-29.567
N4935X51.683Y-29.435
N4940X51.653Y-29.28
N4945X51.19Y-29.326
N4950Z4.
N4955G00Z5.
N4960X53.028Y-28.35
N4965Z4.
N4970G01Z-2.F649.
N4975X52.93Y-28.428
N4980X52.829Y-28.489
N4985X52.728Y-28.533
N4990X52.626Y-28.559
N4995X52.524Y-28.567
N5000X52.391Y-28.553
N5005X52.267Y-28.512
N5010X52.153Y-28.442
N5015X52.048Y-28.344
N5020X51.96Y-28.222
N5025X51.897Y-28.082
N5030X51.86Y-27.922
N5035X51.847Y-27.743
N5040X51.851Y-27.656
N5045X51.864Y-27.562
N5050X51.885Y-27.461
N5055X51.914Y-27.355
N5060X51.952Y-27.248
N5065X51.998Y-27.148
N5070X52.053Y-27.054
N5075X52.116Y-26.966
N5080X52.185Y-26.886
N5085X52.257Y-26.817
N5090X52.332Y-26.758
N5095X52.409Y-26.709
N5100X52.489Y-26.671
N5105X52.569Y-26.644
N5110X52.65Y-26.628
N5115X52.731Y-26.622
N5120X52.816Y-26.628
N5125X52.899Y-26.647
N5130X52.983Y-26.678
N5135X53.065Y-26.722
N5140X53.144Y-26.778
N5145X53.213Y-26.846
N5150X53.274Y-26.926
N5155X53.326Y-27.018
N5160X53.368Y-27.118
N5165X53.398Y-27.222
N5170X53.416Y-27.331
N5175X53.422Y-27.443
N5180X53.412Y-27.588
N5185X53.385Y-27.732
N5190X53.34Y-27.873
N5195X53.277Y-28.012
N5200X53.201Y-28.142
N5205X53.118Y-28.255
N5210X53.028Y-28.35
N5215Z4.
N5220G00Z5.
N5225X51.776Y-24.
N5230Z4.
N5235G01Z-2.F649.
N5240X52.022Y-22.838
N5245X52.063Y-22.657
N5250X52.107Y-22.491
N5255X52.155Y-22.34
N5260X52.207Y-22.203
N5265X52.262Y-22.08
N5270X52.321Y-21.972
N5275X52.384Y-21.878
N5280X52.45Y-21.798
N5285X52.586Y-21.672
N5290X52.72Y-21.581
N5295X52.852Y-21.527
N5300X52.982Y-21.509
N5305X53.057Y-21.515
N5310X53.129Y-21.532
N5315X53.198Y-21.561
N5320X53.263Y-21.602
N5325X53.465Y-21.143
N5330X53.362Y-21.097
N5335X53.267Y-21.063
N5340X53.18Y-21.044
N5345X53.102Y-21.037
N5350X52.991Y-21.047
N5355X52.881Y-21.077
N5360X52.772Y-21.127
N5365X52.664Y-21.198
N5370X52.557Y-21.289
N5375X52.448Y-21.403
N5380X52.338Y-21.538
N5385X52.227Y-21.694
N5390X52.349Y-21.102
N5395X51.913
N5400X51.307Y-24.
N5405X51.776
N5410Z4.
N5415G00Z5.
N5420X50.709
N5425Z4.
N5430G01Z-2.F649.
N5435X50.683Y-23.879
N5440X50.664Y-23.774
N5445X50.653Y-23.683
N5450X50.649Y-23.607
N5455X50.654Y-23.491
N5460X50.668Y-23.36
N5465X50.692Y-23.212
N5470X50.726Y-23.048
N5475X50.887Y-22.327
N5480X50.917Y-22.179
N5485X50.938Y-22.04
N5490X50.951Y-21.91
N5495X50.955Y-21.79
N5500X50.94Y-21.644
N5505X50.895Y-21.513
N5510X50.82Y-21.396
N5515X50.715Y-21.293
N5520X50.633Y-21.233
N5525X50.544Y-21.181
N5530X50.448Y-21.137
N5535X50.345Y-21.101
N5540X50.235Y-21.073
N5545X50.118Y-21.053
N5550X49.994Y-21.041
N5555X49.864Y-21.037
N5560X49.622Y-21.051
N5565X49.402Y-21.094
N5570X49.204Y-21.166
N5575X49.027Y-21.266
N5580X48.873Y-21.393
N5585X48.74Y-21.546
N5590X48.631Y-21.723
N5595X48.543Y-21.926
N5600X49.042Y-21.97
N5605X49.094Y-21.85
N5610X49.159Y-21.745
N5615X49.238Y-21.655
N5620X49.33Y-21.578
N5625X49.436Y-21.518
N5630X49.556Y-21.475
N5635X49.691Y-21.449
N5640X49.839Y-21.441
N5645X49.994Y-21.449
N5650X50.13Y-21.475
N5655X50.245Y-21.517
N5660X50.341Y-21.577
N5665X50.396Y-21.631
N5670X50.435Y-21.694
N5675X50.459Y-21.766
N5680X50.467Y-21.847
N5685X50.463Y-21.918
N5690X50.452Y-21.998
N5695X50.434Y-22.086
N5700X50.409Y-22.183
N5705X50.292Y-22.219
N5710X50.141Y-22.247
N5715X49.958Y-22.268
N5720X49.742Y-22.281
N5725X49.528Y-22.291
N5730X49.352Y-22.303
N5735X49.212Y-22.317
N5740X49.111Y-22.333
N5745X48.983Y-22.361
N5750X48.866Y-22.398
N5755X48.759Y-22.443
N5760X48.663Y-22.495
N5765X48.576Y-22.556
N5770X48.498Y-22.627
N5775X48.43Y-22.706
N5780X48.37Y-22.795
N5785X48.321Y-22.892
N5790X48.287Y-22.996
N5795X48.266Y-23.107
N5800X48.259Y-23.225
N5805X48.275Y-23.401
N5810X48.321Y-23.56
N5815X48.397Y-23.703
N5820X48.505Y-23.83
N5825X48.637Y-23.933
N5830X48.789Y-24.007
N5835X48.961Y-24.051
N5840X49.151Y-24.066
N5845X49.284Y-24.059
N5850X49.413Y-24.04
N5855X49.538Y-24.008
N5860X49.659Y-23.963
N5865X49.779Y-23.905
N5870X49.901Y-23.831
N5875X50.026Y-23.743
N5880X50.153Y-23.64
N5885X50.162Y-23.744
N5890X50.175Y-23.839
N5895X50.191Y-23.924
N5900X50.21Y-24.
N5905X50.709
N5910Z4.
N5915G00Z5.
N5920X49.542Y-23.651
N5925Z4.
N5930G01Z-2.F649.
N5935X49.423Y-23.675
N5940X49.301Y-23.684
N5945X49.177Y-23.675
N5950X49.067Y-23.65
N5955X48.973Y-23.608
N5960X48.894Y-23.55
N5965X48.831Y-23.478
N5970X48.786Y-23.398
N5975X48.759Y-23.308
N5980X48.75Y-23.209
N5985X48.756Y-23.133
N5990X48.773Y-23.06
N5995X48.801Y-22.991
N6000X48.84Y-22.925
N6005X48.891Y-22.865
N6010X48.952Y-22.814
N6015X49.025Y-22.772
N6020X49.108Y-22.738
N6025X49.212Y-22.71
N6030X49.349Y-22.684
N6035X49.516Y-22.662
N6040X49.716Y-22.641
N6045X49.845Y-22.629
N6050X49.955Y-22.617
N6055X50.044Y-22.606
N6060X50.113Y-22.595
N6065X50.228Y-22.568
N6070X50.336Y-22.532
N6075X50.295Y-22.734
N6080X50.248Y-22.911
N6085X50.193Y-23.064
N6090X50.131Y-23.192
N6095X50.06Y-23.302
N6100X49.976Y-23.399
N6105X49.881Y-23.483
N6110X49.773Y-23.554
N6115X49.659Y-23.611
N6120X49.542Y-23.651
N6125Z4.
N6130G00Z5.
N6135X53.255Y-22.9
N6140Z4.
N6145G01Z-2.F649.
N6150X53.264Y-23.069
N6155X53.292Y-23.226
N6160X53.337Y-23.374
N6165X53.401Y-23.512
N6170X53.482Y-23.636
N6175X53.58Y-23.746
N6180X53.694Y-23.841
N6185X53.824Y-23.921
N6190X53.966Y-23.984
N6195X54.116Y-24.029
N6200X54.274Y-24.056
N6205X54.439Y-24.066
N6210X54.643Y-24.051
N6215X54.841Y-24.008
N6220X55.035Y-23.937
N6225X55.224Y-23.836
N6230X55.399Y-23.709
N6235X55.554Y-23.557
N6240X55.687Y-23.38
N6245X55.798Y-23.177
N6250X55.886Y-22.958
N6255X55.95Y-22.73
N6260X55.987Y-22.494
N6265X56.Y-22.248
N6270X55.995Y-22.113
N6275X55.98Y-21.984
N6280X55.955Y-21.863
N6285X55.92Y-21.749
N6290X55.875Y-21.642
N6295X55.82Y-21.542
N6300X55.755Y-21.45
N6305X55.679Y-21.364
N6310X55.596Y-21.288
N6315X55.506Y-21.221
N6320X55.41Y-21.165
N6325X55.308Y-21.119
N6330X55.199Y-21.083
N6335X55.084Y-21.057
N6340X54.963Y-21.042
N6345X54.835Y-21.037
N6350X54.672Y-21.044
N6355X54.517Y-21.066
N6360X54.37Y-21.101
N6365X54.231Y-21.151
N6370X54.099Y-21.216
N6375X53.977Y-21.295
N6380X53.861Y-21.388
N6385X53.754Y-21.495
N6390X53.637Y-21.639
N6395X53.536Y-21.792
N6400X53.45Y-21.954
N6405X53.38Y-22.125
N6410X53.325Y-22.305
N6415X53.286Y-22.494
N6420X53.263Y-22.693
N6425X53.255Y-22.9
N6430Z4.
N6435G00Z5.
N6440X54.445Y-23.684
N6445Z4.
N6450G01Z-2.F649.
N6455X54.3Y-23.67
N6460X54.168Y-23.631
N6465X54.05Y-23.565
N6470X53.945Y-23.472
N6475X53.86Y-23.354
N6480X53.798Y-23.211
N6485X53.761Y-23.044
N6490X53.749Y-22.851
N6495X53.754Y-22.737
N6500X53.767Y-22.615
N6505X53.79Y-22.485
N6510X53.821Y-22.348
N6515X53.862Y-22.211
N6520X53.914Y-22.083
N6525X53.976Y-21.963
N6530X54.048Y-21.853
N6535X54.127Y-21.753
N6540X54.211Y-21.665
N6545X54.3Y-21.591
N6550X54.393Y-21.529
N6555X54.491Y-21.481
N6560X54.594Y-21.447
N6565X54.702Y-21.426
N6570X54.816Y-21.419
N6575X54.959Y-21.432
N6580X55.09Y-21.473
N6585X55.208Y-21.541
N6590X55.314Y-21.636
N6595X55.4Y-21.755
N6600X55.462Y-21.897
N6605X55.499Y-22.06
N6610X55.512Y-22.246
N6615X55.506Y-22.371
N6620X55.49Y-22.499
N6625X55.464Y-22.63
N6630X55.427Y-22.764
N6635X55.361Y-22.951
N6640X55.276Y-23.125
N6645X55.172Y-23.284
N6650X55.048Y-23.424
N6655X54.909Y-23.538
N6660X54.758Y-23.619
N6665X54.602Y-23.667
N6670X54.445Y-23.684
N6675Z4.
N6680G00Z5.
N6685X56.371Y-22.693
N6690Z4.
N6695G01Z-2.F649.
N6700X56.363Y-22.9
N6705X56.372Y-23.069
N6710X56.399Y-23.226
N6715X56.445Y-23.374
N6720X56.509Y-23.512
N6725X56.59Y-23.636
N6730X56.688Y-23.746
N6735X56.801Y-23.841
N6740X56.932Y-23.921
N6745X57.074Y-23.984
N6750X57.224Y-24.029
N6755X57.382Y-24.056
N6760X57.547Y-24.066
N6765X57.751Y-24.051
N6770X57.949Y-24.008
N6775X58.143Y-23.937
N6780X58.332Y-23.836
N6785X58.507Y-23.709
N6790X58.661Y-23.557
N6795X58.794Y-23.38
N6800X58.906Y-23.177
N6805X58.994Y-22.958
N6810X59.057Y-22.73
N6815X59.095Y-22.494
N6820X59.108Y-22.248
N6825X59.103Y-22.113
N6830X59.088Y-21.984
N6835X59.063Y-21.863
N6840X59.028Y-21.749
N6845X58.982Y-21.642
N6850X58.927Y-21.542
N6855X58.862Y-21.45
N6860X58.787Y-21.364
N6865X58.704Y-21.288
N6870X58.614Y-21.221
N6875X58.518Y-21.165
N6880X58.416Y-21.119
N6885X58.307Y-21.083
N6890X58.192Y-21.057
N6895X58.07Y-21.042
N6900X57.943Y-21.037
N6905X57.78Y-21.044
N6910X57.625Y-21.066
N6915X57.477Y-21.101
N6920X57.338Y-21.151
N6925X57.207Y-21.216
N6930X57.084Y-21.295
N6935X56.969Y-21.388
N6940X56.862Y-21.495
N6945X56.745Y-21.639
N6950X56.644Y-21.792
N6955X56.558Y-21.954
N6960X56.488Y-22.125
N6965X56.433Y-22.305
N6970X56.394Y-22.494
N6975X56.371Y-22.693
N6980Z4.
N6985G00Z5.
N6990X58.016Y-23.538
N6995Z4.
N7000G01Z-2.F649.
N7005X57.866Y-23.619
N7010X57.71Y-23.667
N7015X57.553Y-23.684
N7020X57.408Y-23.67
N7025X57.276Y-23.631
N7030X57.158Y-23.565
N7035X57.053Y-23.472
N7040X56.967Y-23.354
N7045X56.906Y-23.211
N7050X56.869Y-23.044
N7055X56.857Y-22.851
N7060X56.861Y-22.737
N7065X56.875Y-22.615
N7070X56.897Y-22.485
N7075X56.929Y-22.348
N7080X56.97Y-22.211
N7085X57.022Y-22.083
N7090X57.084Y-21.963
N7095X57.155Y-21.853
N7100X57.235Y-21.753
N7105X57.319Y-21.665
N7110X57.408Y-21.591
N7115X57.501Y-21.529
N7120X57.599Y-21.481
N7125X57.702Y-21.447
N7130X57.81Y-21.426
N7135X57.924Y-21.419
N7140X58.067Y-21.432
N7145X58.198Y-21.473
N7150X58.316Y-21.541
N7155X58.422Y-21.636
N7160X58.508Y-21.755
N7165X58.57Y-21.897
N7170X58.607Y-22.06
N7175X58.619Y-22.246
N7180X58.614Y-22.371
N7185X58.598Y-22.499
N7190X58.572Y-22.63
N7195X58.535Y-22.764
N7200X58.468Y-22.951
N7205X58.383Y-23.125
N7210X58.279Y-23.284
N7215X58.155Y-23.424
N7220X58.016Y-23.538
N7225Z4.
N7230G00Z5.
N7235X59.498Y-22.623
N7240Z4.
N7245G01Z-2.F649.
N7250X59.484Y-22.887
N7255X59.489Y-23.024
N7260X59.502Y-23.153
N7265X59.523Y-23.274
N7270X59.554Y-23.387
N7275X59.593Y-23.492
N7280X59.641Y-23.589
N7285X59.697Y-23.678
N7290X59.763Y-23.758
N7295X59.834Y-23.83
N7300X59.91Y-23.893
N7305X59.989Y-23.946
N7310X60.072Y-23.989
N7315X60.16Y-24.022
N7320X60.251Y-24.046
N7325X60.346Y-24.061
N7330X60.445Y-24.066
N7335X60.542Y-24.059
N7340X60.641Y-24.041
N7345X60.74Y-24.01
N7350X60.841Y-23.967
N7355X60.943Y-23.912
N7360X61.046Y-23.844
N7365X61.15Y-23.765
N7370X61.255Y-23.673
N7375X60.955Y-25.111
N7380X61.449
N7385X62.284Y-21.102
N7390X61.858
N7395X61.746Y-21.634
N7400X61.674Y-21.494
N7405X61.592Y-21.372
N7410X61.499Y-21.269
N7415X61.396Y-21.185
N7420X61.284Y-21.121
N7425X61.167Y-21.074
N7430X61.043Y-21.046
N7435X60.914Y-21.037
N7440X60.741Y-21.051
N7445X60.57Y-21.091
N7450X60.402Y-21.16
N7455X60.236Y-21.255
N7460X60.079Y-21.378
N7465X59.937Y-21.528
N7470X59.809Y-21.705
N7475X59.696Y-21.91
N7480X59.603Y-22.135
N7485X59.537Y-22.372
N7490X59.498Y-22.623
N7495Z4.
N7500G00Z5.
N7505X60.817Y-23.615
N7510Z4.
N7515G01Z-2.F649.
N7520X60.704Y-23.65
N7525X60.592Y-23.662
N7530X60.465Y-23.649
N7535X60.349Y-23.61
N7540X60.244Y-23.546
N7545X60.15Y-23.456
N7550X60.072Y-23.339
N7555X60.017Y-23.194
N7560X59.984Y-23.022
N7565X59.973Y-22.821
N7570X59.979Y-22.687
N7575X60.Y-22.546
N7580X60.034Y-22.398
N7585X60.082Y-22.243
N7590X60.161Y-22.049
N7595X60.254Y-21.879
N7600X60.36Y-21.734
N7605X60.48Y-21.613
N7610X60.581Y-21.538
N7615X60.69Y-21.486
N7620X60.808Y-21.454
N7625X60.933Y-21.443
N7630X61.06Y-21.456
N7635X61.177Y-21.494
N7640X61.284Y-21.557
N7645X61.381Y-21.645
N7650X61.461Y-21.756
N7655X61.518Y-21.885
N7660X61.552Y-22.034
N7665X61.563Y-22.202
N7670X61.554Y-22.377
N7675X61.527Y-22.555
N7680X61.481Y-22.736
N7685X61.417Y-22.92
N7690X61.339Y-23.094
N7695X61.251Y-23.244
N7700X61.153Y-23.372
N7705X61.044Y-23.476
N7710X60.93Y-23.557
N7715X60.817Y-23.615
N7720Z4.
N7725G00Z5.
N7730X62.367Y-32.426
N7735Z4.
N7740G01Z-2.F649.
N7745X62.237Y-32.451
N7750X62.112Y-32.493
N7755X61.992Y-32.551
N7760X61.881Y-32.624
N7765X61.784Y-32.71
N7770X61.7Y-32.809
N7775X61.629Y-32.921
N7780X61.573Y-33.039
N7785X61.533Y-33.155
N7790X61.509Y-33.271
N7795X61.501Y-33.386
N7800X61.51Y-33.555
N7805X61.539Y-33.714
N7810X61.561Y-33.78
N7815X61.597Y-33.872
N7820X61.647Y-33.99
N7825X61.711Y-34.134
N7830X61.538Y-34.216
N7835X61.387Y-34.295
N7840X61.26Y-34.373
N7845X61.154Y-34.447
N7850X61.039Y-34.549
N7855X60.939Y-34.655
N7860X60.854Y-34.768
N7865X60.784Y-34.887
N7870X60.73Y-35.013
N7875X60.691Y-35.148
N7880X60.668Y-35.292
N7885X60.66Y-35.446
N7890X60.666Y-35.565
N7895X60.681Y-35.679
N7900X60.707Y-35.787
N7905X60.743Y-35.89
N7910X60.79Y-35.989
N7915X60.847Y-36.082
N7920X60.915Y-36.17
N7925X60.993Y-36.252
N7930X61.08Y-36.327
N7935X61.173Y-36.393
N7940X61.273Y-36.448
N7945X61.379Y-36.493
N7950X61.492Y-36.528
N7955X61.612Y-36.553
N7960X61.739Y-36.568
N7965X61.872Y-36.573
N7970X62.016Y-36.567
N7975X62.153Y-36.548
N7980X62.285Y-36.517
N7985X62.409Y-36.473
N7990X62.537Y-36.412
N7995X62.677Y-36.329
N8000X62.829Y-36.223
N8005X62.993Y-36.096
N8010X63.089Y-36.219
N8015X63.198Y-36.341
N8020X63.319Y-36.462
N8025X63.452Y-36.581
N8030X63.823Y-36.284
N8035X63.687Y-36.13
N8040X63.565Y-35.988
N8045X63.457Y-35.857
N8050X63.361Y-35.738
N8055X63.512Y-35.556
N8060X63.646Y-35.371
N8065X63.762Y-35.185
N8070X63.861Y-34.996
N8075X63.43Y-34.775
N8080X63.339Y-34.933
N8085X63.245Y-35.081
N8090X63.149Y-35.218
N8095X63.05Y-35.345
N8100X62.884Y-35.123
N8105X62.714Y-34.872
N8110X62.54Y-34.593
N8115X62.363Y-34.284
N8120X62.505Y-34.21
N8125X62.634Y-34.137
N8130X62.752Y-34.065
N8135X62.857Y-33.994
N8140X62.951Y-33.924
N8145X63.032Y-33.855
N8150X63.1Y-33.787
N8155X63.157Y-33.72
N8160X63.245Y-33.587
N8165X63.308Y-33.453
N8170X63.346Y-33.319
N8175X63.359Y-33.184
N8180X63.344Y-33.03
N8185X63.3Y-32.889
N8190X63.226Y-32.759
N8195X63.123Y-32.641
N8200X62.995Y-32.543
N8205X62.85Y-32.473
N8210X62.685Y-32.431
N8215X62.502Y-32.417
N8220X62.367Y-32.426
N8225Z4.
N8230G00Z5.
N8235X62.466Y-35.391
N8240Z4.
N8245G01Z-2.F649.
N8250X62.707Y-35.716
N8255X62.606Y-35.813
N8260X62.504Y-35.896
N8265X62.403Y-35.967
N8270X62.301Y-36.025
N8275X62.199Y-36.07
N8280X62.096Y-36.103
N8285X61.994Y-36.122
N8290X61.891Y-36.128
N8295X61.744Y-36.115
N8300X61.609Y-36.075
N8305X61.485Y-36.008
N8310X61.374Y-35.914
N8315X61.281Y-35.801
N8320X61.215Y-35.676
N8325X61.176Y-35.538
N8330X61.162Y-35.389
N8335X61.176Y-35.242
N8340X61.218Y-35.104
N8345X61.287Y-34.976
N8350X61.383Y-34.857
N8355X61.476Y-34.774
N8360X61.595Y-34.69
N8365X61.741Y-34.605
N8370X61.913Y-34.518
N8375X62.069Y-34.792
N8380X62.253Y-35.083
N8385X62.466Y-35.391
N8390Z4.
N8395G00Z5.
N8400X62.183Y-33.915
N8405Z4.
N8410G01Z-2.F649.
N8415X62.109Y-33.758
N8420X62.056Y-33.609
N8425X62.024Y-33.468
N8430X62.014Y-33.334
N8435X62.023Y-33.231
N8440X62.05Y-33.136
N8445X62.096Y-33.048
N8450X62.16Y-32.967
N8455X62.235Y-32.9
N8460X62.317Y-32.852
N8465X62.404Y-32.823
N8470X62.497Y-32.813
N8475X62.573Y-32.82
N8480X62.643Y-32.841
N8485X62.707Y-32.875
N8490X62.765Y-32.924
N8495X62.814Y-32.982
N8500X62.848Y-33.047
N8505X62.869Y-33.118
N8510X62.876Y-33.195
N8515X62.868Y-33.271
N8520X62.846Y-33.347
N8525X62.808Y-33.421
N8530X62.756Y-33.495
N8535X62.655Y-33.602
N8540X62.527Y-33.708
N8545X62.369Y-33.812
N8550X62.183Y-33.915
N8555Z4.
N8560G00Z5.
N8565X58.115Y-35.926
N8570Z4.
N8575G01Z-2.F649.
N8580X57.555
N8585X57.438Y-36.486
N8590X57.994
N8595X58.115Y-35.926
N8600Z4.
N8605G00Z5.
N8610X56.65Y-35.677
N8615Z4.
N8620G01Z-2.F649.
N8625X56.906Y-34.456
N8630X55.154
N8635X55.059Y-34.909
N8640X56.276
N8645X56.096Y-35.768
N8650X55.947Y-35.849
N8655X55.8Y-35.918
N8660X55.656Y-35.978
N8665X55.515Y-36.026
N8670X55.376Y-36.063
N8675X55.24Y-36.09
N8680X55.106Y-36.106
N8685X54.974Y-36.112
N8690X54.847Y-36.107
N8695X54.726Y-36.093
N8700X54.613Y-36.069
N8705X54.507Y-36.035
N8710X54.408Y-35.991
N8715X54.316Y-35.938
N8720X54.231Y-35.876
N8725X54.153Y-35.804
N8730X54.083Y-35.722
N8735X54.023Y-35.631
N8740X53.972Y-35.531
N8745X53.93Y-35.422
N8750X53.897Y-35.303
N8755X53.874Y-35.175
N8760X53.86Y-35.038
N8765X53.855Y-34.892
N8770X53.869Y-34.597
N8775X53.912Y-34.319
N8780X53.982Y-34.056
N8785X54.081Y-33.81
N8790X54.202Y-33.587
N8795X54.343Y-33.394
N8800X54.503Y-33.231
N8805X54.682Y-33.098
N8810X54.874Y-32.995
N8815X55.073Y-32.921
N8820X55.279Y-32.877
N8825X55.493Y-32.862
N8830X55.692Y-32.876
N8835X55.872Y-32.917
N8840X56.034Y-32.986
N8845X56.176Y-33.082
N8850X56.298Y-33.204
N8855X56.397Y-33.35
N8860X56.473Y-33.52
N8865X56.527Y-33.714
N8870X57.05Y-33.656
N8875X57.005Y-33.459
N8880X56.946Y-33.281
N8885X56.875Y-33.122
N8890X56.791Y-32.984
N8895X56.691Y-32.861
N8900X56.572Y-32.752
N8905X56.432Y-32.655
N8910X56.273Y-32.572
N8915X56.098Y-32.504
N8920X55.913Y-32.456
N8925X55.716Y-32.427
N8930X55.509Y-32.417
N8935X55.22Y-32.435
N8940X54.944Y-32.488
N8945X54.681Y-32.576
N8950X54.432Y-32.7
N8955X54.314Y-32.775
N8960X54.201Y-32.86
N8965X54.093Y-32.955
N8970X53.99Y-33.059
N8975X53.892Y-33.173
N8980X53.8Y-33.297
N8985X53.712Y-33.43
N8990X53.63Y-33.573
N8995X53.556Y-33.723
N9000X53.491Y-33.876
N9005X53.437Y-34.034
N9010X53.392Y-34.196
N9015X53.357Y-34.362
N9020X53.332Y-34.532
N9025X53.317Y-34.706
N9030X53.312Y-34.884
N9035X53.318Y-35.055
N9040X53.335Y-35.217
N9045X53.363Y-35.372
N9050X53.403Y-35.519
N9055X53.454Y-35.658
N9060X53.516Y-35.789
N9065X53.59Y-35.912
N9070X53.675Y-36.027
N9075X53.79Y-36.151
N9080X53.918Y-36.258
N9085X54.061Y-36.348
N9090X54.217Y-36.422
N9095X54.387Y-36.48
N9100X54.571Y-36.521
N9105X54.768Y-36.546
N9110X54.979Y-36.554
N9115X55.185Y-36.546
N9120X55.392Y-36.521
N9125X55.601Y-36.48
N9130X55.812Y-36.423
N9135X56.017Y-36.353
N9140X56.211Y-36.273
N9145X56.394Y-36.183
N9150X56.565Y-36.085
N9155X56.65Y-35.677
N9160Z4.
N9165G00Z5.
N9170X56.216Y-38.66
N9175Z4.
N9180G01Z-2.F649.
N9185X55.831
N9190X55.706Y-38.804
N9195X55.591Y-38.941
N9200X55.484Y-39.072
N9205X55.385Y-39.195
N9210X55.296Y-39.312
N9215X55.215Y-39.422
N9220X55.144Y-39.525
N9225X55.081Y-39.621
N9230X54.915Y-39.9
N9235X54.771Y-40.18
N9240X54.651Y-40.463
N9245X54.553Y-40.746
N9250X54.477Y-41.036
N9255X54.423Y-41.338
N9260X54.39Y-41.651
N9265X54.379Y-41.975
N9270X54.386Y-42.222
N9275X54.406Y-42.467
N9280X54.439Y-42.711
N9285X54.486Y-42.953
N9290X54.547Y-43.193
N9295X54.62Y-43.432
N9300X54.707Y-43.669
N9305X54.808Y-43.904
N9310X55.176
N9315X55.102Y-43.664
N9320X55.039Y-43.426
N9325X54.985Y-43.189
N9330X54.941Y-42.955
N9335X54.906Y-42.723
N9340X54.882Y-42.493
N9345X54.867Y-42.264
N9350X54.862Y-42.038
N9355X54.872Y-41.737
N9360X54.903Y-41.437
N9365X54.953Y-41.137
N9370X55.023Y-40.838
N9375X55.116Y-40.537
N9380X55.233Y-40.235
N9385X55.374Y-39.929
N9390X55.54Y-39.621
N9395X55.716Y-39.328
N9400X55.887Y-39.071
N9405X56.054Y-38.848
N9410X56.216Y-38.66
N9415Z4.
N9420G00Z5.
N9425X56.857Y-38.729
N9430Z4.
N9435G01Z-2.F649.
N9440X56.022Y-42.729
N9445X56.557
N9450X56.936Y-40.914
N9455X59.04
N9460X59.135Y-40.458
N9465X57.031
N9470X57.296Y-39.184
N9475X59.361
N9480X59.457Y-38.729
N9485X56.857
N9490Z4.
N9495G00Z5.
N9500X59.636Y-41.946
N9505Z4.
N9510G01Z-2.F649.
N9515X59.684Y-42.086
N9520X59.745Y-42.212
N9525X59.819Y-42.323
N9530X59.906Y-42.419
N9535X60.007Y-42.501
N9540X60.118Y-42.57
N9545X60.237Y-42.63
N9550X60.364Y-42.681
N9555X60.499Y-42.723
N9560X60.641Y-42.755
N9565X60.792Y-42.778
N9570X60.95Y-42.792
N9575X61.116Y-42.797
N9580X61.335Y-42.787
N9585X61.541Y-42.759
N9590X61.735Y-42.712
N9595X61.915Y-42.647
N9600X62.081Y-42.564
N9605X62.227Y-42.466
N9610X62.354Y-42.352
N9615X62.463Y-42.222
N9620X62.549Y-42.082
N9625X62.611Y-41.936
N9630X62.648Y-41.783
N9635X62.66Y-41.624
N9640X62.653Y-41.496
N9645X62.631Y-41.375
N9650X62.594Y-41.262
N9655X62.543Y-41.155
N9660X62.478Y-41.056
N9665X62.4Y-40.965
N9670X62.31Y-40.881
N9675X62.207Y-40.805
N9680X62.109Y-40.745
N9685X61.977Y-40.675
N9690X61.811Y-40.595
N9695X61.612Y-40.505
N9700X61.486Y-40.449
N9705X61.371Y-40.397
N9710X61.268Y-40.351
N9715X61.178Y-40.309
N9720X61.1Y-40.272
N9725X61.034Y-40.24
N9730X60.98Y-40.213
N9735X60.939Y-40.191
N9740X60.847Y-40.135
N9745X60.77Y-40.078
N9750X60.709Y-40.021
N9755X60.663Y-39.963
N9760X60.63Y-39.903
N9765X60.606Y-39.839
N9770X60.591Y-39.772
N9775X60.587Y-39.7
N9780X60.598Y-39.582
N9785X60.633Y-39.476
N9790X60.691Y-39.383
N9795X60.772Y-39.301
N9800X60.906Y-39.216
N9805X61.063Y-39.154
N9810X61.245Y-39.117
N9815X61.452Y-39.105
N9820X61.573Y-39.109
N9825X61.688Y-39.122
N9830X61.797Y-39.144
N9835X61.9Y-39.175
N9840X61.995Y-39.212
N9845X62.079Y-39.256
N9850X62.153Y-39.304
N9855X62.216Y-39.359
N9860X62.315Y-39.486
N9865X62.385Y-39.64
N9870X62.407Y-39.754
N9875X62.415Y-39.904
N9880X62.93Y-39.864
N9885X62.932Y-39.814
N9890X62.933Y-39.782
N9895X62.924Y-39.656
N9900X62.895Y-39.527
N9905X62.848Y-39.396
N9910X62.782Y-39.261
N9915X62.694Y-39.131
N9920X62.584Y-39.015
N9925X62.451Y-38.913
N9930X62.295Y-38.824
N9935X62.117Y-38.752
N9940X61.921Y-38.701
N9945X61.705Y-38.671
N9950X61.471Y-38.66
N9955X61.271Y-38.668
N9960X61.082Y-38.693
N9965X60.904Y-38.734
N9970X60.735Y-38.791
N9975X60.582Y-38.864
N9980X60.449Y-38.952
N9985X60.334Y-39.054
N9990X60.24Y-39.171
N9995X60.166Y-39.298
N10000X60.113Y-39.434
N10005X60.082Y-39.577
N10010X60.071Y-39.727
N10015X60.079Y-39.857
N10020X60.103Y-39.98
N10025X60.143Y-40.095
N10030X60.199Y-40.203
N10035X60.272Y-40.306
N10040X60.363Y-40.404
N10045X60.471Y-40.499
N10050X60.597Y-40.589
N10055X60.702Y-40.65
N10060X60.845Y-40.722
N10065X61.024Y-40.807
N10070X61.242Y-40.903
N10075X61.386Y-40.967
N10080X61.516Y-41.027
N10085X61.631Y-41.084
N10090X61.732Y-41.138
N10095X61.818Y-41.188
N10100X61.889Y-41.235
N10105X61.945Y-41.278
N10110X61.986Y-41.318
N10115X62.045Y-41.398
N10120X62.087Y-41.482
N10125X62.112Y-41.57
N10130X62.12Y-41.662
N10135X62.104Y-41.793
N10140X62.057Y-41.917
N10145X61.978Y-42.033
N10150X61.868Y-42.142
N10155X61.727Y-42.234
N10160X61.558Y-42.299
N10165X61.361Y-42.339
N10170X61.135Y-42.352
N10175X60.972Y-42.345
N10180X60.82Y-42.326
N10185X60.68Y-42.293
N10190X60.551Y-42.247
N10195X60.437Y-42.189
N10200X60.34Y-42.12
N10205X60.261Y-42.04
N10210X60.199Y-41.95
N10215X60.153Y-41.851
N10220X60.119Y-41.747
N10225X60.099Y-41.639
N10230X60.093Y-41.525
N10235X60.098Y-41.386
N10240X59.574Y-41.435
N10245X59.582Y-41.62
N10250X59.602Y-41.79
N10255X59.636Y-41.946
N10260Z4.
N10265G00Z5.
N10270X63.157Y-42.729
N10275Z4.
N10280G01Z-2.F649.
N10285X64.598
N10290X64.785Y-42.725
N10295X64.957Y-42.713
N10300X65.114Y-42.693
N10305X65.255Y-42.666
N10310X65.425Y-42.619
N10315X65.584Y-42.562
N10320X65.73Y-42.493
N10325X65.865Y-42.413
N10330X65.993Y-42.32
N10335X66.117Y-42.21
N10340X66.239Y-42.084
N10345X66.359Y-41.941
N10350X66.471Y-41.785
N10355X66.572Y-41.616
N10360X66.662Y-41.435
N10365X66.741Y-41.243
N10370X66.805Y-41.039
N10375X66.85Y-40.824
N10380X66.878Y-40.599
N10385X66.887Y-40.363
N10390X66.879Y-40.166
N10395X66.857Y-39.979
N10400X66.821Y-39.802
N10405X66.769Y-39.634
N10410X66.704Y-39.479
N10415X66.623Y-39.337
N10420X66.529Y-39.208
N10425X66.42Y-39.093
N10430X66.298Y-38.993
N10435X66.164Y-38.909
N10440X66.019Y-38.842
N10445X65.861Y-38.791
N10450X65.733Y-38.764
N10455X65.58Y-38.744
N10460X65.402Y-38.732
N10465X65.198Y-38.729
N10470X63.992
N10475X63.157Y-42.729
N10480Z4.
N10485G00Z5.
N10490X65.181Y-42.196
N10495Z4.
N10500G01Z-2.F649.
N10505X65.009Y-42.231
N10510X64.825Y-42.256
N10515X64.628Y-42.271
N10520X64.42Y-42.276
N10525X63.787
N10530X64.434Y-39.184
N10535X65.141
N10540X65.332Y-39.188
N10545X65.496Y-39.2
N10550X65.633Y-39.22
N10555X65.743Y-39.247
N10560X65.869Y-39.3
N10565X65.982Y-39.375
N10570X66.084Y-39.473
N10575X66.175Y-39.592
N10580X66.249Y-39.736
N10585X66.301Y-39.909
N10590X66.333Y-40.11
N10595X66.344Y-40.338
N10600X66.336Y-40.551
N10605X66.313Y-40.751
N10610X66.274Y-40.94
N10615X66.22Y-41.117
N10620X66.152Y-41.284
N10625X66.075Y-41.441
N10630X65.987Y-41.589
N10635X65.888Y-41.727
N10640X65.807Y-41.823
N10645X65.721Y-41.909
N10650X65.631Y-41.986
N10655X65.536Y-42.052
N10660X65.374Y-42.136
N10665X65.181Y-42.196
N10670Z4.
N10675G00Z5.
N10680X67.383Y-42.169
N10685Z4.
N10690G01Z-2.F649.
N10695X67.266Y-42.729
N10700X67.823
N10705X67.943Y-42.169
N10710X67.383
N10715Z4.
N10720G00Z5.
N10725X52.128Y-36.486
N10730Z4.
N10735G01Z-2.F649.
N10740X52.963Y-32.486
N10745X52.442
N10750X51.951Y-34.838
N10755X51.849Y-35.367
N10760X51.765Y-35.88
N10765X51.699Y-35.66
N10770X51.637Y-35.464
N10775X51.579Y-35.292
N10780X51.525Y-35.143
N10785X51.427Y-34.895
N10790X51.313Y-34.619
N10795X51.183Y-34.317
N10800X51.037Y-33.986
N10805X50.363Y-32.486
N10810X49.845
N10815X49.007Y-36.486
N10820X49.528
N10825X50.035Y-34.055
N10830X50.089Y-33.782
N10835X50.134Y-33.531
N10840X50.168Y-33.303
N10845X50.194Y-33.097
N10850X50.275Y-33.339
N10855X50.37Y-33.6
N10860X50.481Y-33.878
N10865X50.606Y-34.175
N10870X51.599Y-36.486
N10875X52.128
N10880Z4.
N10885G00Z5.
N10890X48.565Y-34.186
N10895Z4.
N10900G01Z-2.F649.
N10905X46.273
N10910X46.535Y-32.941
N10915X48.887
N10920X48.982Y-32.486
N10925X46.096
N10930X45.258Y-36.486
N10935X48.311
N10940X48.407Y-36.033
N10945X45.888
N10950X46.177Y-34.641
N10955X48.469
N10960X48.565Y-34.186
N10965Z4.
N10970G00Z5.
N10975X48.225Y-38.734
N10980Z4.
N10985G01Z-2.F649.
N10990X47.992Y-38.729
N10995X46.314
N11000X45.476Y-42.729
N11005X46.011
N11010X46.382Y-40.952
N11015X47.004
N11020X47.153Y-40.956
N11025X47.279Y-40.968
N11030X47.383Y-40.988
N11035X47.465Y-41.016
N11040X47.536Y-41.057
N11045X47.606Y-41.116
N11050X47.675Y-41.192
N11055X47.743Y-41.285
N11060X47.84Y-41.439
N11065X47.932Y-41.607
N11070X48.018Y-41.789
N11075X48.098Y-41.984
N11080X48.385Y-42.729
N11085X48.982
N11090X48.677Y-41.975
N11095X48.594Y-41.789
N11100X48.499Y-41.605
N11105X48.392Y-41.424
N11110X48.273Y-41.247
N11115X48.21Y-41.169
N11120X48.134Y-41.09
N11125X48.045Y-41.011
N11130X47.943Y-40.93
N11135X48.115Y-40.903
N11140X48.274Y-40.868
N11145X48.422Y-40.827
N11150X48.557Y-40.778
N11155X48.679Y-40.723
N11160X48.79Y-40.66
N11165X48.888Y-40.59
N11170X48.974Y-40.513
N11175X49.049Y-40.43
N11180X49.114Y-40.342
N11185X49.169Y-40.248
N11190X49.214Y-40.149
N11195X49.248Y-40.046
N11200X49.273Y-39.936
N11205X49.288Y-39.822
N11210X49.293Y-39.703
N11215X49.284Y-39.535
N11220X49.257Y-39.383
N11225X49.211Y-39.246
N11230X49.147Y-39.124
N11235X49.067Y-39.019
N11240X48.974Y-38.931
N11245X48.866Y-38.862
N11250X48.745Y-38.812
N11255X48.602Y-38.775
N11260X48.428Y-38.749
N11265X48.225Y-38.734
N11270Z4.
N11275G00Z5.
N11280X49.572Y-42.729
N11285Z4.
N11290G01Z-2.F649.
N11295X50.128
N11300X50.248Y-42.169
N11305X49.689
N11310X49.572Y-42.729
N11315Z4.
N11320G00Z5.
N11325X48.468Y-40.311
N11330Z4.
N11335G01Z-2.F649.
N11340X48.376Y-40.368
N11345X48.273Y-40.417
N11350X48.155Y-40.456
N11355X48.025Y-40.485
N11360X47.88Y-40.505
N11365X47.835Y-40.508
N11370X47.78Y-40.511
N11375X47.713Y-40.513
N11380X47.635Y-40.515
N11385X47.546Y-40.516
N11390X47.446Y-40.518
N11395X47.334
N11400X47.211
N11405X46.472
N11410X46.756Y-39.168
N11415X48.06
N11420X48.203Y-39.171
N11425X48.323Y-39.179
N11430X48.421Y-39.194
N11435X48.497Y-39.214
N11440X48.558Y-39.243
N11445X48.612Y-39.281
N11450X48.661Y-39.331
N11455X48.704Y-39.39
N11460X48.739Y-39.458
N11465X48.763Y-39.531
N11470X48.778Y-39.61
N11475X48.783Y-39.694
N11480X48.776Y-39.796
N11485X48.757Y-39.895
N11490X48.723Y-39.99
N11495X48.677Y-40.082
N11500X48.618Y-40.167
N11505X48.548Y-40.243
N11510X48.468Y-40.311
N11515Z4.
N11520G00Z5.
N11525X45.183Y-39.729
N11530Z4.
N11535G01Z-2.F649.
N11540X45.391Y-38.729
N11545X44.857
N11550X44.51Y-40.39
N11555X42.437
N11560X42.783Y-38.729
N11565X42.251
N11570X41.413Y-42.729
N11575X41.948
N11580X42.344Y-40.843
N11585X44.415
N11590X44.022Y-42.729
N11595X44.557
N11600X45.183Y-39.729
N11605Z4.
N11610G00Z5.
N11615X41.001Y-42.276
N11620Z4.
N11625G01Z-2.F649.
N11630X38.925
N11635X39.664Y-38.729
N11640X39.13
N11645X38.295Y-42.729
N11650X40.906
N11655X41.001Y-42.276
N11660Z4.
N11665G00Z5.
N11670X39.924Y-46.071
N11675Z4.
N11680G01Z-2.F649.
N11685X39.816Y-46.044
N11690X39.7Y-46.024
N11695X39.576Y-46.012
N11700X39.443Y-46.008
N11705X39.324Y-46.012
N11710X39.211Y-46.023
N11715X39.106Y-46.043
N11720X39.007Y-46.07
N11725X38.915Y-46.104
N11730X38.829Y-46.146
N11735X38.751Y-46.196
N11740X38.679Y-46.254
N11745X38.56Y-46.383
N11750X38.475Y-46.524
N11755X38.424Y-46.677
N11760X38.407Y-46.843
N11765X38.412Y-46.938
N11770X38.43Y-47.028
N11775X38.459Y-47.112
N11780X38.499Y-47.191
N11785X38.551Y-47.264
N11790X38.615Y-47.333
N11795X38.689Y-47.396
N11800X38.775Y-47.454
N11805X38.847Y-47.495
N11810X38.955Y-47.547
N11815X39.097Y-47.613
N11820X39.276Y-47.69
N11825X39.453Y-47.771
N11830X39.595Y-47.845
N11835X39.699Y-47.912
N11840X39.768Y-47.973
N11845X39.811Y-48.031
N11850X39.842Y-48.091
N11855X39.86Y-48.152
N11860X39.866Y-48.216
N11865X39.856Y-48.301
N11870X39.825Y-48.381
N11875X39.774Y-48.456
N11880X39.703Y-48.524
N11885X39.611Y-48.581
N11890X39.498Y-48.622
N11895X39.365Y-48.647
N11900X39.211Y-48.655
N11905X39.098Y-48.649
N11910X38.992Y-48.631
N11915X38.893Y-48.601
N11920X38.801Y-48.559
N11925X38.72Y-48.508
N11930X38.653Y-48.45
N11935X38.599Y-48.385
N11940X38.559Y-48.314
N11945X38.531Y-48.235
N11950X38.51Y-48.148
N11955X38.498Y-48.053
N11960X38.494Y-47.951
N11965X38.Y-47.981
N11970X38.001Y-48.116
N11975X38.014Y-48.241
N11980X38.038Y-48.357
N11985X38.074Y-48.463
N11990X38.121Y-48.559
N11995X38.18Y-48.645
N12000X38.251Y-48.722
N12005X38.333Y-48.789
N12010X38.518Y-48.897
N12015X38.722Y-48.975
N12020X38.945Y-49.021
N12025X39.187Y-49.037
N12030X39.365Y-49.029
N12035X39.531Y-49.006
N12040X39.685Y-48.967
N12045X39.827Y-48.913
N12050X39.954Y-48.845
N12055X40.063Y-48.768
N12060X40.156Y-48.68
N12065X40.231Y-48.581
N12070X40.289Y-48.477
N12075X40.33Y-48.372
N12080X40.355Y-48.265
N12085X40.363Y-48.158
N12090X40.348Y-48.002
N12095X40.304Y-47.858
N12100X40.231Y-47.727
N12105X40.128Y-47.607
N12110X40.085Y-47.57
N12115X40.028Y-47.53
N12120X39.959Y-47.486
N12125X39.876Y-47.439
N12130X39.78Y-47.389
N12135X39.671Y-47.336
N12140X39.549Y-47.279
N12145X39.413Y-47.22
N12150X39.259Y-47.151
N12155X39.137Y-47.091
N12160X39.048Y-47.042
N12165X38.991Y-47.001
N12170X38.937Y-46.947
N12175X38.898Y-46.889
N12180X38.875Y-46.827
N12185X38.868Y-46.761
N12190X38.876Y-46.694
N12195X38.903Y-46.63
N12200X38.947Y-46.567
N12205X39.009Y-46.507
N12210X39.088Y-46.456
N12215X39.18Y-46.419
N12220X39.287Y-46.397
N12225X39.408Y-46.39
N12230X39.558Y-46.4
N12235X39.691Y-46.428
N12240X39.805Y-46.476
N12245X39.902Y-46.543
N12250X39.979Y-46.626
N12255X40.035Y-46.723
N12260X40.072Y-46.834
N12265X40.087Y-46.958
N12270X40.57Y-46.925
N12275X40.548Y-46.729
N12280X40.491Y-46.553
N12285X40.4Y-46.397
N12290X40.274Y-46.261
N12295X40.199Y-46.201
N12300X40.115Y-46.15
N12305X40.024Y-46.107
N12310X39.924Y-46.071
N12315Z4.
N12320G00Z5.
N12325X37.271Y-48.488
N12330Z4.
N12335G01Z-2.F649.
N12340X37.776Y-46.074
N12345X37.282
N12350X37.021Y-47.326
N12355X36.982Y-47.5
N12360X36.946Y-47.646
N12365X36.912Y-47.764
N12370X36.881Y-47.853
N12375X36.833Y-47.966
N12380X36.778Y-48.072
N12385X36.716Y-48.169
N12390X36.648Y-48.259
N12395X36.573Y-48.341
N12400X36.491Y-48.413
N12405X36.403Y-48.477
N12410X36.307Y-48.532
N12415X36.208Y-48.576
N12420X36.107Y-48.608
N12425X36.005Y-48.627
N12430X35.902Y-48.633
N12435X35.811Y-48.627
N12440X35.732Y-48.61
N12445X35.664Y-48.582
N12450X35.609Y-48.542
N12455X35.565Y-48.491
N12460X35.534Y-48.432
N12465X35.515Y-48.364
N12470X35.509Y-48.286
N12475X35.512Y-48.216
N12480X35.521Y-48.132
N12485X35.536Y-48.036
N12490X35.558Y-47.926
N12495X35.945Y-46.074
N12500X35.452
N12505X35.102Y-47.746
N12510X35.062Y-47.952
N12515X35.033Y-48.125
N12520X35.015Y-48.266
N12525X35.01Y-48.374
N12530X35.022Y-48.508
N12535X35.061Y-48.631
N12540X35.125Y-48.743
N12545X35.216Y-48.845
N12550X35.327Y-48.929
N12555X35.454Y-48.989
N12560X35.597Y-49.025
N12565X35.757Y-49.037
N12570X35.893Y-49.028
N12575X36.028Y-49.
N12580X36.163Y-48.954
N12585X36.297Y-48.889
N12590X36.43Y-48.807
N12595X36.562Y-48.705
N12600X36.693Y-48.586
N12605X36.824Y-48.447
N12610X36.715Y-48.971
N12615X37.171
N12620X37.271Y-48.488
N12625Z4.
N12630G00Z5.
N12635X33.904Y-47.914
N12640Z4.
N12645G01Z-2.F649.
N12650X33.79Y-48.154
N12655X33.722Y-48.266
N12660X33.649Y-48.364
N12665X33.57Y-48.446
N12670X33.487Y-48.513
N12675X33.398Y-48.566
N12680X33.305Y-48.603
N12685X33.206Y-48.625
N12690X33.102Y-48.633
N12695X33.003Y-48.626
N12700X32.91Y-48.606
N12705X32.823Y-48.572
N12710X32.742Y-48.524
N12715X32.67Y-48.465
N12720X32.609Y-48.398
N12725X32.558Y-48.322
N12730X32.518Y-48.237
N12735X32.498Y-48.162
N12740X32.484Y-48.062
N12745X32.475Y-47.937
N12750X32.472Y-47.787
N12755X32.478Y-47.676
N12760X32.494Y-47.556
N12765X32.523Y-47.426
N12770X32.562Y-47.288
N12775X32.61Y-47.15
N12780X32.664Y-47.023
N12785X32.724Y-46.908
N12790X32.79Y-46.804
N12795X32.86Y-46.711
N12800X32.933Y-46.63
N12805X33.01Y-46.562
N12810X33.089Y-46.506
N12815X33.171Y-46.463
N12820X33.257Y-46.431
N12825X33.346Y-46.413
N12830X33.438Y-46.407
N12835X33.563Y-46.419
N12840X33.678Y-46.457
N12845X33.783Y-46.519
N12850X33.876Y-46.607
N12855X33.953Y-46.718
N12860X34.008Y-46.85
N12865X34.041Y-47.002
N12870X34.052Y-47.176
N12875X34.035Y-47.424
N12880X33.986Y-47.67
N12885X33.904Y-47.914
N12890Z4.
N12895G00Z5.
N12900X31.422Y-46.84
N12905Z4.
N12910G01Z-2.F649.
N12915X31.434Y-46.741
N12920X31.438Y-46.663
N12925X31.427Y-46.516
N12930X31.393Y-46.387
N12935X31.336Y-46.275
N12940X31.257Y-46.18
N12945X31.154Y-46.105
N12950X31.03Y-46.051
N12955X30.882Y-46.019
N12960X30.712Y-46.008
N12965X30.579Y-46.017
N12970X30.448Y-46.042
N12975X30.322Y-46.084
N12980X30.198Y-46.143
N12985X30.077Y-46.219
N12990X29.959Y-46.313
N12995X29.845Y-46.423
N13000X29.733Y-46.551
N13005X29.696Y-46.43
N13010X29.644Y-46.323
N13015X29.577Y-46.23
N13020X29.494Y-46.151
N13025X29.398Y-46.089
N13030X29.29Y-46.044
N13035X29.172Y-46.017
N13040X29.042Y-46.008
N13045X28.918Y-46.015
N13050X28.798Y-46.037
N13055X28.682Y-46.074
N13060X28.572Y-46.125
N13065X28.459Y-46.196
N13070X28.34Y-46.291
N13075X28.213Y-46.409
N13080X28.079Y-46.551
N13085X28.18Y-46.074
N13090X27.686
N13095X27.08Y-48.971
N13100X27.574
N13105X27.861Y-47.602
N13110X27.91Y-47.393
N13115X27.967Y-47.21
N13120X28.029Y-47.053
N13125X28.098Y-46.921
N13130X28.176Y-46.808
N13135X28.264Y-46.708
N13140X28.364Y-46.622
N13145X28.473Y-46.548
N13150X28.587Y-46.49
N13155X28.699Y-46.448
N13160X28.808Y-46.423
N13165X28.914Y-46.415
N13170X28.982Y-46.42
N13175X29.043Y-46.437
N13180X29.097Y-46.464
N13185X29.145Y-46.502
N13190X29.183Y-46.549
N13195X29.211Y-46.603
N13200X29.228Y-46.664
N13205X29.233Y-46.731
N13210X29.231Y-46.781
N13215X29.222Y-46.845
N13220X29.209Y-46.923
N13225X29.19Y-47.015
N13230X28.78Y-48.971
N13235X29.274
N13240X29.569Y-47.566
N13245X29.619Y-47.356
N13250X29.672Y-47.174
N13255X29.73Y-47.022
N13260X29.791Y-46.899
N13265X29.861Y-46.796
N13270X29.944Y-46.703
N13275X30.039Y-46.62
N13280X30.147Y-46.548
N13285X30.261Y-46.49
N13290X30.375Y-46.448
N13295X30.486Y-46.423
N13300X30.597Y-46.415
N13305X30.675Y-46.42
N13310X30.743Y-46.435
N13315X30.802Y-46.461
N13320X30.851Y-46.497
N13325X30.891Y-46.541
N13330X30.919Y-46.593
N13335X30.936Y-46.653
N13340X30.941Y-46.72
N13345X30.938Y-46.779
N13350X30.928Y-46.855
N13355X30.912Y-46.947
N13360X30.491Y-48.971
N13365X30.985
N13370X31.375Y-47.105
N13375X31.403Y-46.962
N13380X31.422Y-46.84
N13385Z4.
N13390G00Z5.
N13395X26.486Y-48.971
N13400Z4.
N13405G01Z-2.F649.
N13410X26.459Y-48.851
N13415X26.441Y-48.745
N13420X26.429Y-48.654
N13425X26.426Y-48.578
N13430X26.43Y-48.463
N13435X26.445Y-48.331
N13440X26.469Y-48.183
N13445X26.502Y-48.019
N13450X26.663Y-47.299
N13455X26.693Y-47.151
N13460X26.714Y-47.012
N13465X26.727Y-46.882
N13470X26.731Y-46.761
N13475X26.716Y-46.616
N13480X26.671Y-46.484
N13485X26.596Y-46.367
N13490X26.491Y-46.265
N13495X26.409Y-46.205
N13500X26.32Y-46.153
N13505X26.224Y-46.108
N13510X26.121Y-46.072
N13515X26.011Y-46.044
N13520X25.895Y-46.024
N13525X25.771Y-46.012
N13530X25.64Y-46.008
N13535X25.398Y-46.022
N13540X25.178Y-46.065
N13545X24.98Y-46.137
N13550X24.803Y-46.237
N13555X24.649Y-46.365
N13560X24.517Y-46.517
N13565X24.407Y-46.695
N13570X24.319Y-46.898
N13575X24.819Y-46.941
N13580X24.87Y-46.822
N13585X24.935Y-46.717
N13590X25.014Y-46.626
N13595X25.106Y-46.55
N13600X25.212Y-46.489
N13605X25.333Y-46.446
N13610X25.467Y-46.421
N13615X25.615Y-46.412
N13620X25.771Y-46.421
N13625X25.906Y-46.446
N13630X26.021Y-46.489
N13635X26.117Y-46.548
N13640X26.172Y-46.602
N13645X26.212Y-46.665
N13650X26.235Y-46.737
N13655X26.243Y-46.819
N13660X26.239Y-46.89
N13665X26.229Y-46.969
N13670X26.211Y-47.057
N13675X26.185Y-47.154
N13680X26.068Y-47.19
N13685X25.918Y-47.218
N13690X25.735Y-47.239
N13695X25.518Y-47.252
N13700X25.305Y-47.263
N13705X25.128Y-47.275
N13710X24.989Y-47.289
N13715X24.887Y-47.304
N13720X24.76Y-47.333
N13725X24.643Y-47.369
N13730X24.536Y-47.414
N13735X24.439Y-47.467
N13740X24.352Y-47.528
N13745X24.275Y-47.598
N13750X24.206Y-47.678
N13755X24.146Y-47.767
N13760X24.098Y-47.864
N13765X24.063Y-47.968
N13770X24.042Y-48.078
N13775X24.035Y-48.196
N13780X24.051Y-48.372
N13785X24.097Y-48.532
N13790X24.174Y-48.674
N13795X24.281Y-48.801
N13800X24.413Y-48.904
N13805X24.566Y-48.978
N13810X24.737Y-49.022
N13815X24.928Y-49.037
N13820X25.061Y-49.03
N13825X25.19Y-49.011
N13830X25.315Y-48.979
N13835X25.435Y-48.935
N13840X25.555Y-48.876
N13845X25.677Y-48.803
N13850X25.802Y-48.714
N13855X25.929Y-48.611
N13860X25.939Y-48.716
N13865X25.952Y-48.81
N13870X25.967Y-48.896
N13875X25.986Y-48.971
N13880X26.486
N13885Z4.
N13890G00Z5.
N13895X24.527Y-48.18
N13900Z4.
N13905G01Z-2.F649.
N13910X24.532Y-48.104
N13915X24.549Y-48.031
N13920X24.577Y-47.962
N13925X24.617Y-47.896
N13930X24.667Y-47.836
N13935X24.729Y-47.785
N13940X24.801Y-47.743
N13945X24.884Y-47.709
N13950X24.989Y-47.681
N13955X25.125Y-47.656
N13960X25.293Y-47.633
N13965X25.493Y-47.612
N13970X25.622Y-47.6
N13975X25.731Y-47.589
N13980X25.82Y-47.577
N13985X25.889Y-47.566
N13990X26.004Y-47.54
N13995X26.112Y-47.503
N14000X26.072Y-47.705
N14005X26.024Y-47.883
N14010X25.969Y-48.035
N14015X25.907Y-48.164
N14020X25.836Y-48.273
N14025X25.752Y-48.37
N14030X25.657Y-48.454
N14035X25.55Y-48.525
N14040X25.435Y-48.582
N14045X25.319Y-48.622
N14050X25.199Y-48.647
N14055X25.078Y-48.655
N14060X24.953Y-48.646
N14065X24.844Y-48.621
N14070X24.749Y-48.58
N14075X24.67Y-48.521
N14080X24.607Y-48.45
N14085X24.562Y-48.369
N14090X24.536Y-48.279
N14095X24.527Y-48.18
N14100Z4.
N14105G00Z5.
N14110X23.514Y-47.963
N14115Z4.
N14120G01Z-2.F649.
N14125X23.587Y-47.805
N14130X23.653Y-47.637
N14135X23.124Y-47.563
N14140X23.036Y-47.796
N14145X22.926Y-48.001
N14150X22.792Y-48.178
N14155X22.636Y-48.327
N14160X22.463Y-48.446
N14165X22.28Y-48.53
N14170X22.088Y-48.581
N14175X21.885Y-48.597
N14180X21.767Y-48.592
N14185X21.654Y-48.577
N14190X21.547Y-48.552
N14195X21.445Y-48.516
N14200X21.35Y-48.471
N14205X21.26Y-48.415
N14210X21.175Y-48.349
N14215X21.097Y-48.273
N14220X21.026Y-48.187
N14225X20.964Y-48.092
N14230X20.912Y-47.988
N14235X20.87Y-47.875
N14240X20.837Y-47.753
N14245X20.813Y-47.622
N14250X20.799Y-47.481
N14255X20.794Y-47.332
N14260X20.8Y-47.142
N14265X20.819Y-46.959
N14270X20.849Y-46.782
N14275X20.892Y-46.612
N14280X20.948Y-46.448
N14285X21.015Y-46.291
N14290X21.095Y-46.141
N14295X21.187Y-45.997
N14300X21.305Y-45.844
N14305X21.431Y-45.712
N14310X21.566Y-45.6
N14315X21.71Y-45.508
N14320X21.863Y-45.437
N14325X22.024Y-45.386
N14330X22.195Y-45.355
N14335X22.374Y-45.345
N14340X22.56Y-45.359
N14345X22.728Y-45.399
N14350X22.878Y-45.466
N14355X23.011Y-45.559
N14360X23.124Y-45.68
N14365X23.216Y-45.828
N14370X23.287Y-46.004
N14375X23.337Y-46.207
N14380X23.836Y-46.161
N14385X23.815Y-46.021
N14390X23.784Y-45.888
N14395X23.743Y-45.762
N14400X23.691Y-45.644
N14405X23.628Y-45.533
N14410X23.556Y-45.429
N14415X23.473Y-45.333
N14420X23.379Y-45.244
N14425X23.277Y-45.164
N14430X23.167Y-45.095
N14435X23.05Y-45.036
N14440X22.925Y-44.988
N14445X22.792Y-44.951
N14450X22.652Y-44.924
N14455X22.504Y-44.909
N14460X22.349Y-44.903
N14465X22.139Y-44.913
N14470X21.937Y-44.943
N14475X21.744Y-44.992
N14480X21.56Y-45.061
N14485X21.385Y-45.149
N14490X21.218Y-45.258
N14495X21.06Y-45.386
N14500X20.911Y-45.533
N14505X20.759Y-45.716
N14510X20.627Y-45.91
N14515X20.516Y-46.116
N14520X20.424Y-46.334
N14525X20.353Y-46.563
N14530X20.302Y-46.804
N14535X20.272Y-47.056
N14540X20.262Y-47.321
N14545X20.269Y-47.522
N14550X20.289Y-47.711
N14555X20.322Y-47.889
N14560X20.369Y-48.054
N14565X20.429Y-48.207
N14570X20.502Y-48.348
N14575X20.589Y-48.478
N14580X20.689Y-48.595
N14585X20.8Y-48.699
N14590X20.921Y-48.789
N14595X21.052Y-48.866
N14600X21.191Y-48.928
N14605X21.34Y-48.977
N14610X21.499Y-49.012
N14615X21.667Y-49.033
N14620X21.844Y-49.04
N14625X21.992Y-49.034
N14630X22.136Y-49.017
N14635X22.276Y-48.99
N14640X22.413Y-48.951
N14645X22.546Y-48.901
N14650X22.675Y-48.84
N14655X22.8Y-48.768
N14660X22.922Y-48.685
N14665X23.039Y-48.591
N14670X23.148Y-48.486
N14675X23.25Y-48.371
N14680X23.345Y-48.246
N14685X23.433Y-48.109
N14690X23.514Y-47.963
N14695Z4.
N14700G00Z5.
N14705X23.419Y-42.729
N14710Z4.
N14715G01Z-2.F649.
N14720X26.472
N14725X26.567Y-42.276
N14730X24.049
N14735X24.338Y-40.884
N14740X26.63
N14745X26.726Y-40.428
N14750X24.434
N14755X24.696Y-39.184
N14760X27.048
N14765X27.143Y-38.729
N14770X24.257
N14775X23.419Y-42.729
N14780Z4.
N14785G00Z5.
N14790X21.664Y-42.222
N14795Z4.
N14800G01Z-2.F649.
N14805X22.297Y-39.184
N14810X23.599
N14815X23.694Y-38.729
N14820X20.546
N14825X20.45Y-39.184
N14830X21.763
N14835X21.023Y-42.729
N14840X21.558
N14845X21.664Y-42.222
N14850Z4.
N14855G00Z5.
N14860X27.462Y-41.646
N14865Z4.
N14870G01Z-2.F649.
N14875X27.509Y-41.811
N14880X27.569Y-41.964
N14885X27.643Y-42.106
N14890X27.729Y-42.235
N14895X27.83Y-42.352
N14900X27.941Y-42.456
N14905X28.062Y-42.547
N14910X28.192Y-42.623
N14915X28.332Y-42.686
N14920X28.481Y-42.734
N14925X28.64Y-42.769
N14930X28.808Y-42.79
N14935X28.985Y-42.797
N14940X29.132Y-42.791
N14945X29.276Y-42.775
N14950X29.417Y-42.747
N14955X29.553Y-42.708
N14960X29.686Y-42.658
N14965X29.815Y-42.597
N14970X29.941Y-42.525
N14975X30.063Y-42.442
N14980X30.179Y-42.348
N14985X30.288Y-42.243
N14990X30.391Y-42.128
N14995X30.486Y-42.003
N15000X30.573Y-41.867
N15005X30.654Y-41.72
N15010X30.728Y-41.562
N15015X30.794Y-41.394
N15020X30.265Y-41.321
N15025X30.177Y-41.554
N15030X30.066Y-41.758
N15035X29.933Y-41.936
N15040X29.776Y-42.085
N15045X29.604Y-42.203
N15050X29.421Y-42.287
N15055X29.228Y-42.338
N15060X29.026Y-42.355
N15065X28.907Y-42.35
N15070X28.795Y-42.334
N15075X28.687Y-42.309
N15080X28.586Y-42.273
N15085X28.49Y-42.228
N15090X28.4Y-42.172
N15095X28.316Y-42.106
N15100X28.237Y-42.03
N15105X28.166Y-41.944
N15110X28.105Y-41.849
N15115X28.053Y-41.745
N15120X28.01Y-41.632
N15125X27.977Y-41.51
N15130X27.953Y-41.379
N15135X27.939Y-41.238
N15140X27.934Y-41.089
N15145X27.941Y-40.899
N15150X27.959Y-40.716
N15155X27.99Y-40.539
N15160X28.033Y-40.369
N15165X28.088Y-40.206
N15170X28.156Y-40.049
N15175X28.235Y-39.898
N15180X28.327Y-39.754
N15185X28.445Y-39.602
N15190X28.572Y-39.469
N15195X28.707Y-39.357
N15200X28.851Y-39.265
N15205X29.003Y-39.194
N15210X29.165Y-39.143
N15215X29.335Y-39.112
N15220X29.514Y-39.102
N15225X29.701Y-39.116
N15230X29.869Y-39.156
N15235X30.019Y-39.223
N15240X30.151Y-39.317
N15245X30.264Y-39.437
N15250X30.356Y-39.586
N15255X30.427Y-39.761
N15260X30.478Y-39.965
N15265X30.977Y-39.918
N15270X30.956Y-39.778
N15275X30.925Y-39.645
N15280X30.883Y-39.519
N15285X30.831Y-39.401
N15290X30.769Y-39.29
N15295X30.696Y-39.187
N15300X30.613Y-39.09
N15305X30.52Y-39.001
N15310X30.417Y-38.921
N15315X30.308Y-38.852
N15320X30.19Y-38.793
N15325X30.065Y-38.746
N15330X29.933Y-38.708
N15335X29.792Y-38.682
N15340X29.645Y-38.666
N15345X29.49Y-38.66
N15350X29.279Y-38.67
N15355X29.078Y-38.7
N15360X28.885Y-38.749
N15365X28.701Y-38.818
N15370X28.525Y-38.907
N15375X28.359Y-39.015
N15380X28.201Y-39.143
N15385X28.052Y-39.291
N15390X27.9Y-39.473
N15395X27.768Y-39.667
N15400X27.656Y-39.873
N15405X27.565Y-40.091
N15410X27.494Y-40.32
N15415X27.443Y-40.561
N15420X27.413Y-40.813
N15425X27.403Y-41.078
N15430X27.409Y-41.279
N15435X27.429Y-41.468
N15440X27.462Y-41.646
N15445Z4.
N15450G00Z5.
N15455X31.27Y-42.229
N15460Z4.
N15465G01Z-2.F649.
N15470X31.165Y-42.729
N15475X31.7
N15480X32.096Y-40.843
N15485X34.166
N15490X33.773Y-42.729
N15495X34.308
N15500X35.143Y-38.729
N15505X34.609
N15510X34.262Y-40.39
N15515X32.188
N15520X32.535Y-38.729
N15525X32.003
N15530X31.27Y-42.229
N15535Z4.
N15540G00Z5.
N15545X35.288Y-42.729
N15550Z4.
N15555G01Z-2.F649.
N15560X35.845
N15565X35.965Y-42.169
N15570X35.405
N15575X35.288Y-42.729
N15580Z4.
N15585G00Z5.
N15590X33.569Y-36.486
N15595Z4.
N15600G01Z-2.F649.
N15605X33.689Y-35.926
N15610X33.13
N15615X33.012Y-36.486
N15620X33.569
N15625Z4.
N15630G00Z5.
N15635X32.145Y-35.152
N15640Z4.
N15645G01Z-2.F649.
N15650X33.607Y-32.486
N15655X33.056
N15660X31.629Y-35.105
N15665X31.543Y-35.268
N15670X31.445Y-35.458
N15675X31.337Y-35.675
N15680X31.217Y-35.918
N15685X31.192Y-35.703
N15690X31.156Y-35.457
N15695X31.109Y-35.179
N15700X31.051Y-34.87
N15705X30.587Y-32.486
N15710X30.071
N15715X30.84Y-36.486
N15720X31.413
N15725X32.145Y-35.152
N15730Z4.
N15735G00Z5.
N15740X29.514Y-32.486
N15745Z4.
N15750G01Z-2.F649.
N15755X28.982
N15760X28.145Y-36.486
N15765X28.679
N15770X29.514Y-32.486
N15775Z4.
N15780G00Z5.
N15785X28.019
N15790Z4.
N15795G01Z-2.F649.
N15800X27.498
N15805X27.007Y-34.838
N15810X26.904Y-35.367
N15815X26.821Y-35.88
N15820X26.755Y-35.66
N15825X26.693Y-35.464
N15830X26.635Y-35.292
N15835X26.581Y-35.143
N15840X26.483Y-34.895
N15845X26.369Y-34.619
N15850X26.239Y-34.317
N15855X26.093Y-33.986
N15860X25.419Y-32.486
N15865X24.9
N15870X24.063Y-36.486
N15875X24.584
N15880X25.091Y-34.055
N15885X25.145Y-33.782
N15890X25.19Y-33.531
N15895X25.224Y-33.303
N15900X25.25Y-33.097
N15905X25.331Y-33.339
N15910X25.426Y-33.6
N15915X25.537Y-33.878
N15920X25.662Y-34.175
N15925X26.655Y-36.486
N15930X27.184
N15935X28.019Y-32.486
N15940Z4.
N15945G00Z5.
N15950X23.677Y-33.894
N15955Z4.
N15960G01Z-2.F649.
N15965X23.97Y-32.486
N15970X23.435
N15975X22.974Y-34.688
N15980X22.943Y-34.832
N15985X22.911Y-34.966
N15990X22.878Y-35.09
N15995X22.844Y-35.204
N16000X22.809Y-35.308
N16005X22.773Y-35.401
N16010X22.736Y-35.485
N16015X22.698Y-35.558
N16020X22.615Y-35.686
N16025X22.518Y-35.798
N16030X22.407Y-35.893
N16035X22.282Y-35.971
N16040X22.148Y-36.033
N16045X22.008Y-36.077
N16050X21.864Y-36.103
N16055X21.713Y-36.112
N16060X21.529Y-36.1
N16065X21.361Y-36.063
N16070X21.21Y-36.001
N16075X21.075Y-35.915
N16080X20.964Y-35.809
N16085X20.885Y-35.688
N16090X20.837Y-35.55
N16095X20.821Y-35.397
N16100X20.825Y-35.313
N16105X20.837Y-35.21
N16110X20.857Y-35.087
N16115X20.884Y-34.944
N16120X21.397Y-32.486
N16125X20.862
N16130X20.406Y-34.668
N16135X20.38Y-34.792
N16140X20.358Y-34.906
N16145X20.338Y-35.011
N16150X20.323Y-35.106
N16155X20.31Y-35.191
N16160X20.302Y-35.268
N16165X20.296Y-35.334
N16170X20.295Y-35.391
N16175X20.305Y-35.555
N16180X20.336Y-35.709
N16185X20.388Y-35.855
N16190X20.46Y-35.992
N16195X20.553Y-36.117
N16200X20.666Y-36.228
N16205X20.801Y-36.324
N16210X20.956Y-36.407
N16215X21.13Y-36.472
N16220X21.318Y-36.519
N16225X21.522Y-36.547
N16230X21.741Y-36.557
N16235X21.974Y-36.543
N16240X22.192Y-36.504
N16245X22.395Y-36.438
N16250X22.584Y-36.345
N16255X22.756Y-36.231
N16260X22.907Y-36.099
N16265X23.039Y-35.95
N16270X23.151Y-35.783
N16275X23.249Y-35.592
N16280X23.336Y-35.37
N16285X23.414Y-35.117
N16290X23.482Y-34.832
N16295X23.677Y-33.894
N16300Z4.
N16305G00Z5.
N16310X22.467Y-30.243
N16315Z4.
N16320G01Z-2.F649.
N16325X22.562Y-29.79
N16330X20.772
N16335X20.823Y-29.707
N16340X20.884Y-29.621
N16345X20.957Y-29.532
N16350X21.041Y-29.441
N16355X21.142Y-29.341
N16360X21.266Y-29.229
N16365X21.414Y-29.104
N16370X21.585Y-28.966
N16375X21.788Y-28.804
N16380X21.969Y-28.657
N16385X22.129Y-28.523
N16390X22.267Y-28.403
N16395X22.385Y-28.297
N16400X22.482Y-28.205
N16405X22.557Y-28.127
N16410X22.611Y-28.063
N16415X22.735Y-27.877
N16420X22.824Y-27.687
N16425X22.877Y-27.493
N16430X22.895Y-27.296
N16435X22.886Y-27.161
N16440X22.86Y-27.027
N16445X22.817Y-26.896
N16450X22.756Y-26.767
N16455X22.678Y-26.646
N16460X22.582Y-26.539
N16465X22.47Y-26.447
N16470X22.34Y-26.368
N16475X22.197Y-26.306
N16480X22.047Y-26.262
N16485X21.888Y-26.235
N16490X21.722Y-26.226
N16495X21.597Y-26.231
N16500X21.477Y-26.246
N16505X21.363Y-26.27
N16510X21.253Y-26.303
N16515X21.149Y-26.346
N16520X21.051Y-26.399
N16525X20.957Y-26.462
N16530X20.869Y-26.533
N16535X20.788Y-26.614
N16540X20.715Y-26.701
N16545X20.65Y-26.795
N16550X20.594Y-26.897
N16555X20.547Y-27.005
N16560X20.508Y-27.121
N16565X20.478Y-27.243
N16570X20.456Y-27.372
N16575X20.939Y-27.443
N16580X20.991Y-27.243
N16585X21.059Y-27.071
N16590X21.141Y-26.93
N16595X21.239Y-26.817
N16600X21.348Y-26.732
N16605X21.467Y-26.671
N16610X21.594Y-26.634
N16615X21.73Y-26.622
N16620X21.866Y-26.634
N16625X21.992Y-26.67
N16630X22.106Y-26.73
N16635X22.209Y-26.815
N16640X22.294Y-26.916
N16645X22.355Y-27.028
N16650X22.392Y-27.15
N16655X22.404Y-27.282
N16660X22.388Y-27.44
N16665X22.341Y-27.585
N16670X22.288Y-27.688
N16675X22.22Y-27.792
N16680X22.139Y-27.897
N16685X22.044Y-28.003
N16690X21.957Y-28.087
N16695X21.84Y-28.19
N16700X21.693Y-28.314
N16705X21.514Y-28.458
N16710X21.361Y-28.581
N16715X21.221Y-28.695
N16720X21.094Y-28.8
N16725X20.979Y-28.895
N16730X20.878Y-28.982
N16735X20.79Y-29.059
N16740X20.715Y-29.127
N16745X20.652Y-29.185
N16750X20.546Y-29.295
N16755X20.451Y-29.409
N16760X20.366Y-29.525
N16765X20.293Y-29.644
N16770X20.229Y-29.772
N16775X20.173Y-29.914
N16780X20.124Y-30.071
N16785X20.082Y-30.243
N16790X22.467
N16795Z4.
N16800G00Z5.
N16805X23.301Y-29.391
N16810Z4.
N16815G01Z-2.F649.
N16820X23.335Y-29.524
N16825X23.379Y-29.648
N16830X23.432Y-29.761
N16835X23.495Y-29.864
N16840X23.567Y-29.958
N16845X23.647Y-30.041
N16850X23.731Y-30.112
N16855X23.82Y-30.173
N16860X23.912Y-30.223
N16865X24.01Y-30.261
N16870X24.111Y-30.289
N16875X24.217Y-30.306
N16880X24.327Y-30.311
N16885X24.541Y-30.293
N16890X24.743Y-30.238
N16895X24.933Y-30.147
N16900X25.111Y-30.019
N16905X25.219Y-29.917
N16910X25.322Y-29.803
N16915X25.419Y-29.677
N16920X25.509Y-29.538
N16925X25.593Y-29.388
N16930X25.671Y-29.226
N16935X25.743Y-29.051
N16940X25.809Y-28.865
N16945X25.902Y-28.539
N16950X25.969Y-28.212
N16955X26.008Y-27.883
N16960X26.022Y-27.552
N16965X26.017Y-27.396
N16970X26.003Y-27.25
N16975X25.979Y-27.112
N16980X25.945Y-26.984
N16985X25.902Y-26.866
N16990X25.849Y-26.757
N16995X25.787Y-26.657
N17000X25.715Y-26.567
N17005X25.636Y-26.488
N17010X25.552Y-26.418
N17015X25.463Y-26.36
N17020X25.37Y-26.312
N17025X25.272Y-26.274
N17030X25.169Y-26.248
N17035X25.062Y-26.232
N17040X24.949Y-26.226
N17045X24.835Y-26.232
N17050X24.725Y-26.247
N17055X24.621Y-26.273
N17060X24.522Y-26.31
N17065X24.426Y-26.357
N17070X24.328Y-26.416
N17075X24.23Y-26.487
N17080X24.131Y-26.57
N17085X24.032Y-26.667
N17090X23.935Y-26.782
N17095X23.84Y-26.913
N17100X23.746Y-27.061
N17105X23.656Y-27.231
N17110X23.569Y-27.428
N17115X23.487Y-27.65
N17120X23.409Y-27.899
N17125X23.343Y-28.16
N17130X23.296Y-28.419
N17135X23.267Y-28.676
N17140X23.258Y-28.93
N17145X23.263Y-29.094
N17150X23.277Y-29.247
N17155X23.301Y-29.391
N17160Z4.
N17165G00Z5.
N17170X24.352Y-29.918
N17175Z4.
N17180G01Z-2.F649.
N17185X24.273Y-29.914
N17190X24.198Y-29.9
N17195X24.129Y-29.878
N17200X24.065Y-29.847
N17205X24.006Y-29.806
N17210X23.951Y-29.757
N17215X23.902Y-29.699
N17220X23.858Y-29.632
N17225X23.804Y-29.518
N17230X23.766Y-29.384
N17235X23.743Y-29.23
N17240X23.735Y-29.056
N17245X23.744Y-28.861
N17250X23.77Y-28.639
N17255X23.814Y-28.387
N17260X23.875Y-28.106
N17265X23.916Y-27.939
N17270X23.96Y-27.783
N17275X24.005Y-27.637
N17280X24.052Y-27.502
N17285X24.101Y-27.378
N17290X24.152Y-27.264
N17295X24.205Y-27.162
N17300X24.259Y-27.07
N17305X24.338Y-26.956
N17310X24.419Y-26.86
N17315X24.501Y-26.783
N17320X24.585Y-26.723
N17325X24.672Y-26.679
N17330X24.762Y-26.647
N17335X24.856Y-26.628
N17340X24.952Y-26.622
N17345X25.081Y-26.634
N17350X25.196Y-26.67
N17355X25.298Y-26.729
N17360X25.387Y-26.813
N17365X25.46Y-26.924
N17370X25.511Y-27.064
N17375X25.542Y-27.235
N17380X25.552Y-27.435
N17385X25.542Y-27.675
N17390X25.51Y-27.947
N17395X25.457Y-28.251
N17400X25.382Y-28.588
N17405X25.337Y-28.759
N17410X25.286Y-28.919
N17415X25.23Y-29.069
N17420X25.17Y-29.208
N17425X25.103Y-29.337
N17430X25.032Y-29.455
N17435X24.955Y-29.562
N17440X24.873Y-29.659
N17445X24.753Y-29.772
N17450X24.625Y-29.853
N17455X24.492Y-29.902
N17460X24.352Y-29.918
N17465Z4.
N17470G00Z5.
N17475X26.582Y-29.525
N17480Z4.
N17485G01Z-2.F649.
N17490X26.509Y-29.644
N17495X26.445Y-29.772
N17500X26.389Y-29.914
N17505X26.339Y-30.071
N17510X26.297Y-30.243
N17515X28.682
N17520X28.778Y-29.79
N17525X26.988
N17530X27.038Y-29.707
N17535X27.1Y-29.621
N17540X27.173Y-29.532
N17545X27.257Y-29.441
N17550X27.358Y-29.341
N17555X27.482Y-29.229
N17560X27.63Y-29.104
N17565X27.801Y-28.966
N17570X28.003Y-28.804
N17575X28.184Y-28.657
N17580X28.344Y-28.523
N17585X28.483Y-28.403
N17590X28.601Y-28.297
N17595X28.697Y-28.205
N17600X28.772Y-28.127
N17605X28.827Y-28.063
N17610X28.951Y-27.877
N17615X29.04Y-27.687
N17620X29.093Y-27.493
N17625X29.111Y-27.296
N17630X29.102Y-27.161
N17635X29.076Y-27.027
N17640X29.032Y-26.896
N17645X28.971Y-26.767
N17650X28.893Y-26.646
N17655X28.798Y-26.539
N17660X28.685Y-26.447
N17665X28.555Y-26.368
N17670X28.413Y-26.306
N17675X28.262Y-26.262
N17680X28.104Y-26.235
N17685X27.937Y-26.226
N17690X27.812Y-26.231
N17695X27.693Y-26.246
N17700X27.578Y-26.27
N17705X27.469Y-26.303
N17710X27.365Y-26.346
N17715X27.266Y-26.399
N17720X27.173Y-26.462
N17725X27.085Y-26.533
N17730X27.003Y-26.614
N17735X26.93Y-26.701
N17740X26.866Y-26.795
N17745X26.81Y-26.897
N17750X26.763Y-27.005
N17755X26.724Y-27.121
N17760X26.693Y-27.243
N17765X26.671Y-27.372
N17770X27.154Y-27.443
N17775X27.207Y-27.243
N17780X27.274Y-27.071
N17785X27.357Y-26.93
N17790X27.454Y-26.817
N17795X27.564Y-26.732
N17800X27.682Y-26.671
N17805X27.809Y-26.634
N17810X27.945Y-26.622
N17815X28.082Y-26.634
N17820X28.207Y-26.67
N17825X28.321Y-26.73
N17830X28.424Y-26.815
N17835X28.51Y-26.916
N17840X28.571Y-27.028
N17845X28.607Y-27.15
N17850X28.619Y-27.282
N17855X28.604Y-27.44
N17860X28.557Y-27.585
N17865X28.503Y-27.688
N17870X28.436Y-27.792
N17875X28.354Y-27.897
N17880X28.259Y-28.003
N17885X28.173Y-28.087
N17890X28.056Y-28.19
N17895X27.908Y-28.314
N17900X27.73Y-28.458
N17905X27.577Y-28.581
N17910X27.437Y-28.695
N17915X27.309Y-28.8
N17920X27.195Y-28.895
N17925X27.094Y-28.982
N17930X27.006Y-29.059
N17935X26.93Y-29.127
N17940X26.868Y-29.185
N17945X26.761Y-29.295
N17950X26.666Y-29.409
N17955X26.582Y-29.525
N17960Z4.
N17965G00Z5.
N17970X29.517Y-29.391
N17975Z4.
N17980G01Z-2.F649.
N17985X29.551Y-29.524
N17990X29.594Y-29.648
N17995X29.648Y-29.761
N18000X29.711Y-29.864
N18005X29.783Y-29.958
N18010X29.863Y-30.041
N18015X29.947Y-30.112
N18020X30.035Y-30.173
N18025X30.128Y-30.223
N18030X30.225Y-30.261
N18035X30.327Y-30.289
N18040X30.433Y-30.306
N18045X30.543Y-30.311
N18050X30.757Y-30.293
N18055X30.958Y-30.238
N18060X31.148Y-30.147
N18065X31.326Y-30.019
N18070X31.435Y-29.917
N18075X31.538Y-29.803
N18080X31.634Y-29.677
N18085X31.724Y-29.538
N18090X31.809Y-29.388
N18095X31.887Y-29.226
N18100X31.959Y-29.051
N18105X32.025Y-28.865
N18110X32.118Y-28.539
N18115X32.184Y-28.212
N18120X32.224Y-27.883
N18125X32.237Y-27.552
N18130X32.233Y-27.396
N18135X32.218Y-27.25
N18140X32.194Y-27.112
N18145X32.161Y-26.984
N18150X32.118Y-26.866
N18155X32.065Y-26.757
N18160X32.002Y-26.657
N18165X31.93Y-26.567
N18170X31.851Y-26.488
N18175X31.767Y-26.418
N18180X31.679Y-26.36
N18185X31.586Y-26.312
N18190X31.488Y-26.274
N18195X31.385Y-26.248
N18200X31.277Y-26.232
N18205X31.165Y-26.226
N18210X31.05Y-26.232
N18215X30.941Y-26.247
N18220X30.837Y-26.273
N18225X30.738Y-26.31
N18230X30.642Y-26.357
N18235X30.544Y-26.416
N18240X30.446Y-26.487
N18245X30.347Y-26.57
N18250X30.248Y-26.667
N18255X30.151Y-26.782
N18260X30.055Y-26.913
N18265X29.962Y-27.061
N18270X29.871Y-27.231
N18275X29.785Y-27.428
N18280X29.703Y-27.65
N18285X29.625Y-27.899
N18290X29.559Y-28.16
N18295X29.511Y-28.419
N18300X29.483Y-28.676
N18305X29.473Y-28.93
N18310X29.478Y-29.094
N18315X29.493Y-29.247
N18320X29.517Y-29.391
N18325Z4.
N18330G00Z5.
N18335X30.567Y-29.918
N18340Z4.
N18345G01Z-2.F649.
N18350X30.488Y-29.914
N18355X30.414Y-29.9
N18360X30.345Y-29.878
N18365X30.28Y-29.847
N18370X30.221Y-29.806
N18375X30.167Y-29.757
N18380X30.118Y-29.699
N18385X30.074Y-29.632
N18390X30.02Y-29.518
N18395X29.982Y-29.384
N18400X29.959Y-29.23
N18405X29.951Y-29.056
N18410X29.96Y-28.861
N18415X29.986Y-28.639
N18420X30.029Y-28.387
N18425X30.09Y-28.106
N18430X30.132Y-27.939
N18435X30.176Y-27.783
N18440X30.221Y-27.637
N18445X30.268Y-27.502
N18450X30.317Y-27.378
N18455X30.368Y-27.264
N18460X30.42Y-27.162
N18465X30.475Y-27.07
N18470X30.553Y-26.956
N18475X30.634Y-26.86
N18480X30.716Y-26.783
N18485X30.801Y-26.723
N18490X30.888Y-26.679
N18495X30.978Y-26.647
N18500X31.071Y-26.628
N18505X31.168Y-26.622
N18510X31.296Y-26.634
N18515X31.412Y-26.67
N18520X31.514Y-26.729
N18525X31.603Y-26.813
N18530X31.675Y-26.924
N18535X31.727Y-27.064
N18540X31.758Y-27.235
N18545X31.768Y-27.435
N18550X31.757Y-27.675
N18555X31.725Y-27.947
N18560X31.672Y-28.251
N18565X31.597Y-28.588
N18570X31.552Y-28.759
N18575X31.502Y-28.919
N18580X31.446Y-29.069
N18585X31.385Y-29.208
N18590X31.319Y-29.337
N18595X31.247Y-29.455
N18600X31.171Y-29.562
N18605X31.089Y-29.659
N18610X30.968Y-29.772
N18615X30.841Y-29.853
N18620X30.708Y-29.902
N18625X30.567Y-29.918
N18630Z4.
N18635G00Z5.
N18640X32.548Y-28.548
N18645Z4.
N18650G01Z-2.F649.
N18655X32.445Y-29.042
N18660X33.954
N18665X34.055Y-28.548
N18670X32.548
N18675Z4.
N18680G00Z5.
N18685X34.605Y-28.743
N18690Z4.
N18695G01Z-2.F649.
N18700X34.292Y-30.243
N18705X34.813
N18710X35.345Y-27.692
N18715X35.378Y-27.524
N18720X35.411Y-27.329
N18725X35.445Y-27.106
N18730X35.479Y-26.857
N18735X35.493Y-27.084
N18740X35.511Y-27.297
N18745X35.533Y-27.495
N18750X35.558Y-27.678
N18755X35.959Y-30.243
N18760X36.475
N18765X37.965Y-27.626
N18770X38.086Y-27.405
N18775X38.198Y-27.191
N18780X38.299Y-26.985
N18785X38.39Y-26.786
N18790X38.263Y-27.194
N18795X38.151Y-27.583
N18800X38.056Y-27.95
N18805X37.975Y-28.297
N18810X37.558Y-30.243
N18815X38.085
N18820X38.919Y-26.243
N18825X38.251
N18830X36.849Y-28.72
N18835X36.755Y-28.888
N18840X36.667Y-29.048
N18845X36.587Y-29.198
N18850X36.514Y-29.339
N18855X36.448Y-29.471
N18860X36.389Y-29.595
N18865X36.337Y-29.709
N18870X36.292Y-29.815
N18875X36.254Y-29.335
N18880X36.188Y-28.835
N18885X35.784Y-26.243
N18890X35.127
N18895X34.605Y-28.743
N18900Z4.
N18905G00Z5.
N18910X39.219Y-28.328
N18915Z4.
N18920G01Z-2.F649.
N18925X39.209Y-28.592
N18930X39.215Y-28.793
N18935X39.235Y-28.983
N18940X39.269Y-29.16
N18945X39.315Y-29.325
N18950X39.375Y-29.479
N18955X39.449Y-29.62
N18960X39.536Y-29.749
N18965X39.636Y-29.866
N18970X39.747Y-29.971
N18975X39.868Y-30.061
N18980X39.998Y-30.137
N18985X40.138Y-30.2
N18990X40.287Y-30.249
N18995X40.446Y-30.283
N19000X40.614Y-30.304
N19005X40.791Y-30.311
N19010X40.939Y-30.306
N19015X41.083Y-30.289
N19020X41.223Y-30.261
N19025X41.36Y-30.222
N19030X41.492Y-30.173
N19035X41.622Y-30.111
N19040X41.747Y-30.039
N19045X41.869Y-29.956
N19050X41.986Y-29.862
N19055X42.095Y-29.758
N19060X42.197Y-29.643
N19065X42.292Y-29.517
N19070X42.38Y-29.381
N19075X42.46Y-29.234
N19080X42.534Y-29.077
N19085X42.6Y-28.909
N19090X42.071Y-28.835
N19095X41.983Y-29.068
N19100X41.872Y-29.273
N19105X41.739Y-29.45
N19110X41.583Y-29.599
N19115X41.41Y-29.717
N19120X41.227Y-29.802
N19125X41.035Y-29.852
N19130X40.832Y-29.869
N19135X40.714Y-29.864
N19140X40.601Y-29.849
N19145X40.494Y-29.823
N19150X40.392Y-29.788
N19155X40.297Y-29.742
N19160X40.207Y-29.686
N19165X40.122Y-29.62
N19170X40.044Y-29.544
N19175X39.973Y-29.459
N19180X39.911Y-29.364
N19185X39.859Y-29.26
N19190X39.817Y-29.147
N19195X39.783Y-29.024
N19200X39.76Y-28.893
N19205X39.745Y-28.753
N19210X39.741Y-28.603
N19215X39.747Y-28.413
N19220X39.765Y-28.23
N19225X39.796Y-28.053
N19230X39.839Y-27.883
N19235X39.894Y-27.72
N19240X39.962Y-27.563
N19245X40.042Y-27.413
N19250X40.134Y-27.269
N19255X40.251Y-27.116
N19260X40.378Y-26.983
N19265X40.513Y-26.871
N19270X40.657Y-26.78
N19275X40.81Y-26.708
N19280X40.971Y-26.657
N19285X41.141Y-26.627
N19290X41.321Y-26.617
N19295X41.507Y-26.63
N19300X41.675Y-26.67
N19305X41.825Y-26.737
N19310X41.958Y-26.831
N19315X42.071Y-26.952
N19320X42.163Y-27.1
N19325X42.234Y-27.276
N19330X42.284Y-27.479
N19335X42.783Y-27.433
N19340X42.762Y-27.292
N19345X42.731Y-27.159
N19350X42.689Y-27.034
N19355X42.637Y-26.915
N19360X42.575Y-26.805
N19365X42.502Y-26.701
N19370X42.419Y-26.605
N19375X42.326Y-26.516
N19380X42.224Y-26.436
N19385X42.114Y-26.367
N19390X41.996Y-26.308
N19395X41.871Y-26.26
N19400X41.739Y-26.223
N19405X41.599Y-26.196
N19410X41.451Y-26.18
N19415X41.296Y-26.175
N19420X41.086Y-26.184
N19425X40.884Y-26.214
N19430X40.691Y-26.263
N19435X40.507Y-26.332
N19440X40.332Y-26.421
N19445X40.165Y-26.529
N19450X40.007Y-26.657
N19455X39.858Y-26.805
N19460X39.706Y-26.987
N19465X39.574Y-27.182
N19470X39.462Y-27.388
N19475X39.371Y-27.605
N19480X39.3Y-27.834
N19485X39.249Y-28.075
N19490X39.219Y-28.328
N19495Z4.
N19500G00Z5.
N19505X42.996Y-29.042
N19510Z4.
N19515G01Z-2.F649.
N19520X44.505
N19525X44.606Y-28.548
N19530X43.1
N19535X42.996Y-29.042
N19540Z4.
N19545G00Z5.
N19550X43.831Y-32.486
N19555Z4.
N19560G01Z-2.F649.
N19565X41.231
N19570X40.396Y-36.486
N19575X40.93
N19580X41.31Y-34.671
N19585X43.413
N19590X43.509Y-34.216
N19595X41.405
N19600X41.67Y-32.941
N19605X43.735
N19610X43.831Y-32.486
N19615Z4.
N19620G00Z5.
N19625X39.674Y-35.641
N19630Z4.
N19635G01Z-2.F649.
N19640X39.78Y-35.474
N19645X39.875Y-35.293
N19650X39.978Y-35.038
N19655X40.053Y-34.773
N19660X40.097Y-34.497
N19665X40.112Y-34.21
N19670X40.104Y-34.011
N19675X40.083Y-33.821
N19680X40.046Y-33.643
N19685X39.994Y-33.474
N19690X39.928Y-33.316
N19695X39.847Y-33.169
N19700X39.751Y-33.031
N19705X39.641Y-32.904
N19710X39.519Y-32.79
N19715X39.389Y-32.691
N19720X39.249Y-32.608
N19725X39.101Y-32.539
N19730X38.945Y-32.486
N19735X38.779Y-32.448
N19740X38.605Y-32.425
N19745X38.423Y-32.417
N19750X38.207Y-32.428
N19755X37.999Y-32.459
N19760X37.799Y-32.511
N19765X37.607Y-32.583
N19770X37.424Y-32.676
N19775X37.249Y-32.79
N19780X37.082Y-32.924
N19785X36.924Y-33.079
N19790X36.779Y-33.251
N19795X36.653Y-33.436
N19800X36.547Y-33.633
N19805X36.46Y-33.843
N19810X36.393Y-34.065
N19815X36.344Y-34.301
N19820X36.315Y-34.549
N19825X36.306Y-34.81
N19830X36.318Y-35.039
N19835X36.356Y-35.261
N19840X36.42Y-35.476
N19845X36.509Y-35.685
N19850X36.622Y-35.879
N19855X36.76Y-36.05
N19860X36.921Y-36.199
N19865X37.106Y-36.325
N19870X37.309Y-36.425
N19875X37.522Y-36.497
N19880X37.746Y-36.54
N19885X37.981Y-36.554
N19890X38.207Y-36.542
N19895X38.427Y-36.505
N19900X38.641Y-36.443
N19905X38.849Y-36.357
N19910X39.Y-36.276
N19915X39.147Y-36.179
N19920X39.29Y-36.067
N19925X39.427Y-35.939
N19930X39.556Y-35.797
N19935X39.674Y-35.641
N19940Z4.
N19945G00Z5.
N19950X38.609Y-35.966
N19955Z4.
N19960G01Z-2.F649.
N19965X38.467Y-36.03
N19970X38.323Y-36.075
N19975X38.174Y-36.103
N19980X38.022Y-36.112
N19985X37.864Y-36.102
N19990X37.71Y-36.07
N19995X37.56Y-36.018
N20000X37.413Y-35.945
N20005X37.278Y-35.854
N20010X37.16Y-35.747
N20015X37.06Y-35.624
N20020X36.978Y-35.484
N20025X36.914Y-35.333
N20030X36.869Y-35.175
N20035X36.841Y-35.01
N20040X36.832Y-34.838
N20045X36.84Y-34.618
N20050X36.862Y-34.409
N20055X36.9Y-34.212
N20060X36.952Y-34.026
N20065X37.02Y-33.852
N20070X37.102Y-33.689
N20075X37.2Y-33.538
N20080X37.312Y-33.398
N20085X37.435Y-33.273
N20090X37.562Y-33.164
N20095X37.693Y-33.072
N20100X37.829Y-32.996
N20105X37.97Y-32.938
N20110X38.116Y-32.896
N20115X38.266Y-32.871
N20120X38.42Y-32.862
N20125X38.541Y-32.868
N20130X38.656Y-32.884
N20135X38.766Y-32.912
N20140X38.872Y-32.951
N20145X38.973Y-33.001
N20150X39.069Y-33.062
N20155X39.16Y-33.134
N20160X39.246Y-33.217
N20165X39.324Y-33.309
N20170X39.392Y-33.409
N20175X39.449Y-33.517
N20180X39.496Y-33.632
N20185X39.533Y-33.755
N20190X39.559Y-33.886
N20195X39.575Y-34.024
N20200X39.58Y-34.169
N20205X39.572Y-34.354
N20210X39.548Y-34.541
N20215X39.508Y-34.729
N20220X39.453Y-34.918
N20225X39.384Y-35.101
N20230X39.303Y-35.269
N20235X39.21Y-35.422
N20240X39.106Y-35.559
N20245X38.993Y-35.682
N20250X38.872Y-35.791
N20255X38.744Y-35.886
N20260X38.609Y-35.966
N20265Z4.
N20270G00Z5.
N20275X40.776Y-50.
N20280Z4.
N20285G01Z-2.F649.
N20290X40.971Y-49.766
N20295X41.14Y-49.552
N20300X41.283Y-49.359
N20305X41.4Y-49.187
N20310X41.566Y-48.907
N20315X41.709Y-48.625
N20320X41.83Y-48.343
N20325X41.928Y-48.06
N20330X42.004Y-47.77
N20335X42.058Y-47.469
N20340X42.09Y-47.155
N20345X42.101Y-46.829
N20350X42.094Y-46.583
N20355X42.074Y-46.339
N20360X42.04Y-46.096
N20365X41.993Y-45.854
N20370X41.933Y-45.614
N20375X41.859Y-45.375
N20380X41.771Y-45.139
N20385X41.67Y-44.903
N20390X41.301
N20395X41.439Y-45.381
N20400X41.537Y-45.851
N20405X41.596Y-46.313
N20410X41.615Y-46.767
N20415X41.605Y-47.069
N20420X41.575Y-47.37
N20425X41.526Y-47.67
N20430X41.456Y-47.969
N20435X41.363Y-48.268
N20440X41.247Y-48.571
N20445X41.105Y-48.876
N20450X40.939Y-49.184
N20455X40.797Y-49.421
N20460X40.659Y-49.636
N20465X40.524Y-49.829
N20470X40.392Y-50.
N20475Z4.
N20480G00Z5.
N20485X32.006
N20490Z4.
N20495G01Z-2.F649.
N20500X32.317Y-48.507
N20505X32.392Y-48.632
N20510X32.474Y-48.739
N20515X32.564Y-48.83
N20520X32.662Y-48.904
N20525X32.766Y-48.962
N20530X32.878Y-49.004
N20535X32.998Y-49.029
N20540X33.124Y-49.037
N20545X33.241Y-49.03
N20550X33.356Y-49.01
N20555X33.47Y-48.977
N20560X33.583Y-48.93
N20565X33.694Y-48.87
N20570X33.805Y-48.794
N20575X33.915Y-48.703
N20580X34.025Y-48.597
N20585X34.129Y-48.475
N20590X34.226Y-48.335
N20595X34.314Y-48.176
N20600X34.393Y-47.999
N20605X34.459Y-47.807
N20610X34.506Y-47.606
N20615X34.534Y-47.395
N20620X34.543Y-47.173
N20625X34.539Y-47.037
N20630X34.526Y-46.909
N20635X34.505Y-46.788
N20640X34.475Y-46.676
N20645X34.436Y-46.572
N20650X34.389Y-46.477
N20655X34.334Y-46.389
N20660X34.27Y-46.31
N20665X34.2Y-46.239
N20670X34.125Y-46.178
N20675X34.046Y-46.126
N20680X33.962Y-46.084
N20685X33.874Y-46.051
N20690X33.781Y-46.027
N20695X33.684Y-46.013
N20700X33.583Y-46.008
N20705X33.472Y-46.015
N20710X33.365Y-46.034
N20715X33.26Y-46.066
N20720X33.158Y-46.111
N20725X33.055Y-46.172
N20730X32.944Y-46.253
N20735X32.827Y-46.355
N20740X32.704Y-46.478
N20745X32.789Y-46.074
N20750X32.333
N20755X31.512Y-50.
N20760Z4.
N20765G00Z15.
N20770M05
N20775G28G91Z0.
N20780G90
N20785G49

(DRILL1)
N20790M09
N20795M01
N20800T3M06
N20810S500M03
N20815G54
N20820M08
N20825G00X0.Y0.
N20830G43Z15.H03
N20835G00Z5.
N20840M29S500
N20845G98G84X0.Y0.Z-16.R4.P0F1500.
N20850G80
N20855Z15.

N20860M09
N20865G28G91Z0.
N20870G90
N20875G49
N20880G28G91X0.Y0.
N20885G90
N20890M30
%