%
O0005
(T1 D=12.7 CR=0. - ZMIN=-5.5 - FLAT END MILL)
(T2 D=25.4 CR=0. - ZMIN=4.5 - FLAT END MILL)
N10G90G94G17G49G40G80
N15G21
N20G28G91Z0.
N25G90

(FACE1)
N30T2M06
N40S11999M03
N45G54
N50M08
N55G00X18.591Y-20.37
N60G43Z20.5H02
N65G00Z10.5
N70G01Z7.04F1901.
N75G18G03X16.051Z4.5I-2.54
N80G01X8.815
N85X-7.179
N90X-11.173
N95G17G02Y-16.376J1.997
N100G01X9.885
N105X10.955
N110G03Y-12.382J1.997
N115G01X-11.711
N120G02Y-8.389J1.997
N125G01X11.711
N130G03Y-4.395J1.997
N135G01X-11.711
N140G02Y-0.401J1.997
N145G01X11.711
N150G18G02X14.251Z7.04K2.54
N155G00Z20.5
N160G17
N165M05
N170G28G91Z0.
N175G90
N180G49

(2D CONTOUR1)
N30T3M06
N185M09
N190M01
N200T2
N205S11999M03
N210G54
N215M08
N220G00X21.924Y3.877
N225G43Z20.5H01
N230G00Z10.5
N235G01Z6.5F425.
N240Z-4.23
N245X21.916Z-4.372F1275.
N250X21.892Y3.879Z-4.513
N255X21.852Y3.881Z-4.649
N260X21.798Y3.883Z-4.781
N265X21.729Y3.887Z-4.906
N270X21.647Y3.891Z-5.022
N275X21.552Y3.896Z-5.128
N280X21.446Y3.902Z-5.223
N285X21.33Y3.908Z-5.305
N290X21.206Y3.914Z-5.374
N295X21.074Y3.921Z-5.429
N300X20.938Y3.928Z-5.468
N305X20.797Y3.936Z-5.492
N310X20.655Y3.943Z-5.5
N315X19.387Y4.009
N320G03X18.053Y2.807I-0.066J-1.268
N325G02X17.845Y1.495I-6.341J0.331
N330G01X14.707Y-10.217
N335G02X10.217Y-14.707I-6.134J1.643
N340G01X-1.495Y-17.845
N345G02X-7.628Y-16.201I-1.643J6.134
N350G01X-16.201Y-7.628
N355G02X-17.845Y-1.495I4.49J4.49
N360G01X-14.707Y10.217
N365G02X-10.217Y14.707I6.134J-1.643
N370G01X1.495Y17.845
N375G02X7.628Y16.201I1.643J-6.134
N380G01X16.201Y7.628
N385G02X18.053Y2.807I-4.49J-4.49
N390G03X19.255Y1.473I1.268J-0.066
N395G01X20.523Y1.407
N400X20.665Y1.399Z-5.492
N405X20.805Y1.392Z-5.468
N410X20.942Y1.385Z-5.429
N415X21.073Y1.378Z-5.374
N420X21.198Y1.371Z-5.305
N425X21.314Y1.365Z-5.223
N430X21.42Y1.36Z-5.128
N435X21.515Y1.355Z-5.022
N440X21.597Y1.35Z-4.906
N445X21.666Y1.347Z-4.781
N450X21.72Y1.344Z-4.649
N455X21.759Y1.342Z-4.513
N460X21.783Y1.341Z-4.372
N465X21.791Y1.34Z-4.23
N470G00Z20.5

(DRILL1)
N30T4M06
N475G00X0.Y0.
N480Z20.5
N485Z10.5
N490G98G81X0.Y0.Z-5.5R9.5F425.
N495G80
N500Z20.5

N505M09
N510G28G91Z0.
N515G90
N520G49
N525G28G91X0.Y0.
N530G90
N535M30
%